!!!!SEGMENT: pl-wtm--r-1697_stefani-jozef--obertas-do-baletu-wesele-w-ojcowie.krn
!!!cenid: 18xx:2318
!!!COM: Stefani, Józef
!!!COM-rism: pe30024097
!!!CDT: 1800/04/16-1876/03/19
!!!CNT: Polish
!!!OTL: Obertas do baletu Wesele w Ojcowie
!!!PDT:
!!!AGN: Secular
!!!SMS-siglum: PL-Wtm
!!!SMS-shelfmark: R 1697
!!!NIFC-rismID: 1001128539
!!!URL-scan: http://repozytorium.nifc.pl/skany/pl-wtm-nut--r1697
!!!ONB-nifc:
!!!SMS-variant:
!!!SMS-altvar:
**kern	**dynam	**kern	**dynam	**kern	**dynam	**kern	**dynam	**kern	**dynam	**kern	**dynam	**kern	**kern	**dynam	**kern	**dynam	**kern	**dynam	**kern	**dynam	**kern	**dynam	**kern	**dynam	**kern	**dynam	**kern	**dynam	**kern	**dynam	**kern	**dynam	**kern	**dynam
*	*	*	*	*	*	*group2	*	*group2	*	*	*	*	*group1	*	*group1	*	*group1	*	*	*	*	*	*	*	*	*	*	*	*	*	*	*	*	*
*	*	*	*	*	*	*I""Violini	*	*I""Violini	*	*	*	*	*I""Tromboni	*	*I""Tromboni	*	*I""Tromboni	*	*	*	*	*	*	*	*	*	*	*	*	*	*	*	*	*
*part18	*part18	*part17	*part17	*part16	*part16	*part15	*part15	*part14	*part14	*part13	*part13	*part12	*part11	*part11	*part10	*part10	*part9	*part9	*part8	*part8	*part7	*part7	*part6	*part6	*part5	*part5	*part4	*part4	*part3	*part3	*part2	*part2	*part1	*part1
*staff18	*	*staff17	*	*staff16	*	*staff15	*	*staff14	*	*staff13	*	*staff12	*staff11	*	*staff10	*	*staff9	*	*staff8	*	*staff7	*	*staff6	*	*staff5	*	*staff4	*	*staff3	*	*staff2	*	*staff1	*
*I"C: Baſsi	*	*I"Violoncelli	*	*I"Viole	*	*	*	*	*	*I"Banda	*	*I"d.g. Timpani	*	*	*	*	*	*	*I"in C Trombe	*	*I"Fagotti	*	*I"in C. Corni	*	*I"in d Corni	*	*I"Clarinetti	*	*I"Oboe	*	*I"Picolo	*	*I"Flauto	*
*clefF4	*	*clefF4	*	*clefC3	*	*clefG2	*	*clefG2	*	*clefF4	*	*clefF4	*clefF4	*	*clefC4	*	*clefC3	*	*clefG2	*	*clefF4	*	*clefG2	*	*clefG2	*	*clefG2	*	*clefG2	*	*clefG2	*	*clefG2	*
*ITrd0c0	*	*	*	*	*	*	*	*	*	*ITrd0c0	*	*	*	*	*	*	*	*	*	*	*	*	*ITrd0c0	*	*ITrd6c10	*	*	*	*	*	*ITrd0c0	*	*	*
*	*	*	*	*	*	*	*	*	*	*	*	*	*	*	*	*	*	*	*	*	*	*	*ok[]	*	*	*	*ok[]	*	*	*	*	*	*	*
*k[f#c#]	*	*k[f#c#]	*	*k[f#c#]	*	*k[f#c#]	*	*k[f#c#]	*	*k[]	*	*k[]	*k[f#c#]	*	*k[f#c#]	*	*k[f#c#]	*	*k[f#c#]	*	*k[f#c#]	*	*k[f#c#]	*	*k[f#c#]	*	*k[f#c#]	*	*k[f#c#]	*	*k[f#c#]	*	*k[f#c#]	*
*M3/8	*	*M3/8	*	*M3/8	*	*M3/8	*	*M3/8	*	*M3/8	*	*M3/8	*M3/8	*	*M3/8	*	*M3/8	*	*M3/8	*	*M3/8	*	*M3/8	*	*M3/8	*	*M3/8	*	*M3/8	*	*M3/8	*	*M3/8	*
*>[A,B,B,C,C,D,D,E,E,F,F]	*	*>[A,B,B,C,C,D,D,E,E,F,F]	*	*>[A,B,B,C,C,D,D,E,E,F,F]	*	*>[A,B,B,C,C,D,D,E,E,F,F]	*	*>[A,B,B,C,C,D,D,E,E,F,F]	*	*>[A,B,B,C,C,D,D,E,E,F,F]	*	*>[A,B,B,C,C,D,D,E,E,F,F]	*>[A,B,B,C,C,D,D,E,E,F,F]	*	*>[A,B,B,C,C,D,D,E,E,F,F]	*	*>[A,B,B,C,C,D,D,E,E,F,F]	*	*>[A,B,B,C,C,D,D,E,E,F,F]	*	*>[A,B,B,C,C,D,D,E,E,F,F]	*	*>[A,B,B,C,C,D,D,E,E,F,F]	*	*>[A,B,B,C,C,D,D,E,E,F,F]	*	*>[A,B,B,C,C,D,D,E,E,F,F]	*	*>[A,B,B,C,C,D,D,E,E,F,F]	*	*>[A,B,B,C,C,D,D,E,E,F,F]	*	*>[A,B,B,C,C,D,D,E,E,F,F]	*
!!LO:TX:t=P:problem:all\right or left:global
=1	=1	=1	=1	=1	=1	=1	=1	=1	=1	=1	=1	=1	=1	=1	=1	=1	=1	=1	=1	=1	=1	=1	=1	=1	=1	=1	=1	=1	=1	=1	=1	=1	=1	=1
*>A	*	*>A	*	*>A	*	*>A	*	*>A	*	*>A	*	*>A	*>A	*	*>A	*	*>A	*	*>A	*	*>A	*	*>A	*	*>A	*	*>A	*	*>A	*	*>A	*	*>A	*
!	!	!	!LO:DY:rj	!	!	!	!	!	!	!	!	!	!	!	!	!	!	!	!	!	!	!	!	!	!	!	!	!	!	!	!	!	!	!
4AA/	.	4AA/ 4E	f	4.ryy	.	4.ryy	.	4.ryy	.	4.ryy	.	4.ryy	4.ryy	.	4.ryy	.	4.ryy	.	4.ryy	.	4.ryy	.	4.ryy	.	4.ryy	.	4.r	.	4.r	.	4.r	.	4.r	.
8AA/	.	8AA/ 8E	.	.	.	.	.	.	.	.	.	.	.	.	.	.	.	.	.	.	.	.	.	.	.	.	.	.	.	.	.	.	.	.
=2	=2	=2	=2	=2	=2	=2	=2	=2	=2	=2	=2	=2	=2	=2	=2	=2	=2	=2	=2	=2	=2	=2	=2	=2	=2	=2	=2	=2	=2	=2	=2	=2	=2	=2
*tremolo	*	*	*	*	*	*	*	*	*	*	*	*	*	*	*	*	*	*	*	*	*	*	*	*	*	*	*	*	*	*	*	*	*	*
.	.	(8qD#X/	.	.	.	.	.	.	.	.	.	.	.	.	.	.	.	.	.	.	.	.	.	.	.	.	.	.	.	.	.	.	.	.
8AA/L	.	8E/L)	.	4.ryy	.	4.ryy	.	4.ryy	.	4.ryy	.	4.ryy	4.ryy	.	4.ryy	.	4.ryy	.	4.ryy	.	4.ryy	.	4.ryy	.	4.ryy	.	4.r	.	4.r	.	4.r	.	4.r	.
8AA/	.	8AA'/ 8E	.	.	.	.	.	.	.	.	.	.	.	.	.	.	.	.	.	.	.	.	.	.	.	.	.	.	.	.	.	.	.	.
8AA/J	.	8AA'/J 8E	.	.	.	.	.	.	.	.	.	.	.	.	.	.	.	.	.	.	.	.	.	.	.	.	.	.	.	.	.	.	.	.
*Xtremolo	*	*	*	*	*	*	*	*	*	*	*	*	*	*	*	*	*	*	*	*	*	*	*	*	*	*	*	*	*	*	*	*	*	*
=3	=3	=3	=3	=3	=3	=3	=3	=3	=3	=3	=3	=3	=3	=3	=3	=3	=3	=3	=3	=3	=3	=3	=3	=3	=3	=3	=3	=3	=3	=3	=3	=3	=3	=3
4AA/	.	4AA/ 4E	.	4.ryy	.	4.ryy	.	4.ryy	.	4.ryy	.	4.ryy	4.ryy	.	4.ryy	.	4.ryy	.	4.ryy	.	4.ryy	.	4.ryy	.	4.ryy	.	4.ryy	.	4.ryy	.	4.ryy	.	4.ryy	.
8AA/	.	8AA/ 8E	.	.	.	.	.	.	.	.	.	.	.	.	.	.	.	.	.	.	.	.	.	.	.	.	.	.	.	.	.	.	.	.
=4	=4	=4	=4	=4	=4	=4	=4	=4	=4	=4	=4	=4	=4	=4	=4	=4	=4	=4	=4	=4	=4	=4	=4	=4	=4	=4	=4	=4	=4	=4	=4	=4	=4	=4
*tremolo	*	*	*	*	*	*	*	*	*	*	*	*	*	*	*	*	*	*	*	*	*	*	*	*	*	*	*	*	*	*	*	*	*	*
.	.	(8qF#/	.	.	.	.	.	.	.	.	.	.	.	.	.	.	.	.	.	.	.	.	.	.	.	.	.	.	.	.	.	.	.	.
8AA/L	.	8E/L)	.	4.ryy	.	4.ryy	.	4.ryy	.	4.ryy	.	4.ryy	4.ryy	.	4.ryy	.	4.ryy	.	4.ryy	.	4.ryy	.	4.ryy	.	4.ryy	.	4.ryy	.	4.ryy	.	4.ryy	.	4.ryy	.
8AA/	.	8AA/ 8E	.	.	.	.	.	.	.	.	.	.	.	.	.	.	.	.	.	.	.	.	.	.	.	.	.	.	.	.	.	.	.	.
8AA/J	.	8AA/J 8E	.	.	.	.	.	.	.	.	.	.	.	.	.	.	.	.	.	.	.	.	.	.	.	.	.	.	.	.	.	.	.	.
!!LO:PB:g=original
=5!|:	=5!|:	=5!|:	=5!|:	=5!|:	=5!|:	=5!|:	=5!|:	=5!|:	=5!|:	=5!|:	=5!|:	=5!|:	=5!|:	=5!|:	=5!|:	=5!|:	=5!|:	=5!|:	=5!|:	=5!|:	=5!|:	=5!|:	=5!|:	=5!|:	=5!|:	=5!|:	=5!|:	=5!|:	=5!|:	=5!|:	=5!|:	=5!|:	=5!|:	=5!|:
*>B	*	*>B	*	*>B	*	*>B	*	*>B	*	*>B	*	*>B	*>B	*	*>B	*	*>B	*	*>B	*	*>B	*	*>B	*	*>B	*	*>B	*	*>B	*	*>B	*	*>B	*
*	*	*	*	*	*	*	*	*	*	*^	*	*	*	*	*	*	*	*	*	*	*	*	*	*	*^	*	*	*	*	*	*	*	*	*
*	*	*	*	*tremolo	*	*tremolo	*	*	*	*	*	*	*	*	*	*	*	*	*	*	*	*	*	*	*	*	*	*	*	*	*	*	*	*	*	*
!	!	!	!	!	!	!	!	!	!	!	!	!	!	!	!	!	!	!	!	!	!	!	!	!	!	!	!	!	!	!	!LO:TX:a:t=1°. Col Picolo	!	!	!	!	!
!	!	!	!	!	!	!	!LO:DY:rj	!	!LO:DY:a	!	!	!	!	!	!	!	!	!	!	!	!	!	!	!	!	!	!	!	!	!	!	!LO:DY:a	!	!LO:DY:a	!LO:TX:t=[segno]	!
8AA/L	sf	16.E|\LL	.	8c#\L	.	8A/L 8g	sf	16.e|/LL	sf	8Ree/	4.r	.	8Re/	8AA\ 8A	sf	8c#\	sf	8g\	sf	4.r	.	4.AA\ 4.A	sfp	4.ryy	.	4.g/	4.c#\	sfp	4.r	.	16.ee|\LLyy	sfy	16.ee|\LL	sf	4.r	.
.	.	32G|\JJk	.	.	.	.	.	32g|/JJk	.	.	.	.	.	.	.	.	.	.	.	.	.	.	.	.	.	.	.	.	.	.	32gg|\JJkyy	.	32gg|\JJk	.	.	.
8AA/	.	8A|\L	.	8c#\	.	8A/ 8g	.	8a|/L	.	8r	.	.	8r	8r	.	8r	.	8r	.	.	.	.	.	.	.	.	.	.	.	.	8aa|\Lyy	.	8aa|\L	.	.	.
8AA/J	.	(16G\L	.	8c#\J	.	8A/J 8g	.	(16g/L	.	32Ree/LLL	.	.	8r	8r	.	8r	.	8r	.	.	.	.	.	.	.	.	.	.	.	.	(16gg\Lyy	.	(16gg\L	.	.	.
.	.	.	.	.	.	.	.	.	.	32Ree/	.	.	.	.	.	.	.	.	.	.	.	.	.	.	.	.	.	.	.	.	.	.	.	.	.	.
.	.	16E\JJ)	.	.	.	.	.	16e/JJ)	.	32Ree/	.	.	.	.	.	.	.	.	.	.	.	.	.	.	.	.	.	.	.	.	16ee\JJ)yy	.	16ee\JJ)	.	.	.
.	.	.	.	.	.	.	.	.	.	32Ree/JJJ	.	.	.	.	.	.	.	.	.	.	.	.	.	.	.	.	.	.	.	.	.	.	.	.	.	.
=6	=6	=6	=6	=6	=6	=6	=6	=6	=6	=6	=6	=6	=6	=6	=6	=6	=6	=6	=6	=6	=6	=6	=6	=6	=6	=6	=6	=6	=6	=6	=6	=6	=6	=6	=6	=6
!	!	!	!	!	!	!	!	!	!	!	!	!	!	!	!	!	!	!	!	!	!	!	!	!	!	!	!	!	!	!	!	!	!	!	!LO:TX:a:t=A.	!
8D\L	.	16.D|\LL	.	8d\L	.	8A/L 8f#	.	16.d|/LL	.	8Ree/	4.r	.	4.r	8D\ 8A	p	8d\	p	8f#\	p	4.r	.	8D\ 8A	.	4.ryy	.	8f#/	8d\	.	4.r	.	16.dd|\LLyy	.	16.dd|\LL	.	4.r	.
.	.	32F#|\JJk	.	.	.	.	.	32f#|/JJk	.	.	.	.	.	.	.	.	.	.	.	.	.	.	.	.	.	.	.	.	.	.	32ff#|\JJkyy	.	32ff#|\JJk	.	.	.
8D\	.	8B|\L	.	8d\	.	8A/ 8f#	.	8b|/L	.	8r	.	.	.	8r	.	8r	.	8r	.	.	.	8rBB	.	.	.	8r	8r	.	.	.	8bbT\Lyy	.	8bbT\L	.	.	.
8D\J	.	8A|\J	.	8d\J	.	8A/J 8f#	.	8a|/J	.	8r	.	.	.	8r	.	8r	.	8r	.	.	.	8rBB	.	.	.	8r	8r	.	.	.	8aa|\Jyy	.	8aa|\J	.	.	.
=7	=7	=7	=7	=7	=7	=7	=7	=7	=7	=7	=7	=7	=7	=7	=7	=7	=7	=7	=7	=7	=7	=7	=7	=7	=7	=7	=7	=7	=7	=7	=7	=7	=7	=7	=7	=7
!	!	!	!	!	!	!	!LO:DY:rj	!	!LO:DY:a	!	!	!	!	!	!	!	!	!	!	!	!	!	!	!	!	!	!	!	!	!	!	!LO:DY:a	!	!LO:DY:a	!	!
8AA/L	sf	16.E|\LL	.	8c#\L	.	8A/L 8g	sf	16.e|/LL	sf	8Ree/L	4.r	.	8Re/	8AA\ 8A	sf	8c#\	sf	8g\	sf	4.r	.	4.AA\ 4.A	sfp	4.ryy	.	4.g/	4.c#\	sfp	4.r	.	16.ee|\LLyy	sfy	16.ee|\LL	sf	4.r	.
.	.	32G|\JJk	.	.	.	.	.	32g|/JJk	.	.	.	.	.	.	.	.	.	.	.	.	.	.	.	.	.	.	.	.	.	.	32gg|\JJkyy	.	32gg|\JJk	.	.	.
8AA/	.	8A|\L	.	8c#\	.	8A/ 8g	.	8a|/L	.	8r	.	.	8r	8r	.	8r	.	8r	.	.	.	.	.	.	.	.	.	.	.	.	8aa|\Lyy	.	8aa|\L	.	.	.
*	*	*	*	*	*	*	*	*	*	*tremolo	*	*	*	*	*	*	*	*	*	*	*	*	*	*	*	*	*	*	*	*	*	*	*	*	*	*
8AA/J	.	(16G\L	.	8c#\J	.	8A/J 8g	.	(16g/L	.	32Ree/LL	.	.	8r	8r	.	8r	.	8r	.	.	.	.	.	.	.	.	.	.	.	.	(16gg\Lyy	.	(16gg\L	.	.	.
.	.	.	.	.	.	.	.	.	.	32Ree/	.	.	.	.	.	.	.	.	.	.	.	.	.	.	.	.	.	.	.	.	.	.	.	.	.	.
.	.	16E\JJ)	.	.	.	.	.	16e/JJ)	.	32Ree/	.	.	.	.	.	.	.	.	.	.	.	.	.	.	.	.	.	.	.	.	16ee\JJ)yy	.	16ee\JJ)	.	.	.
.	.	.	.	.	.	.	.	.	.	32Ree/JJJ	.	.	.	.	.	.	.	.	.	.	.	.	.	.	.	.	.	.	.	.	.	.	.	.	.	.
*	*	*	*	*	*	*	*	*	*	*Xtremolo	*	*	*	*	*	*	*	*	*	*	*	*	*	*	*	*	*	*	*	*	*	*	*	*	*	*
=8	=8	=8	=8	=8	=8	=8	=8	=8	=8	=8	=8	=8	=8	=8	=8	=8	=8	=8	=8	=8	=8	=8	=8	=8	=8	=8	=8	=8	=8	=8	=8	=8	=8	=8	=8	=8
.	.	(32qqF#/LLL	.	.	.	.	.	32qqf#/LLL	.	.	.	.	.	.	.	.	.	.	.	.	.	.	.	.	.	.	.	.	.	.	(>32qqff#/LLLyy	.	(>32qqff#/LLL	.	.	.
.	.	32qqE/JJJ	.	.	.	.	.	32qqe/JJJ	.	.	.	.	.	.	.	.	.	.	.	.	.	.	.	.	.	.	.	.	.	.	32qqee/JJJyy	.	32qqee/JJJ	.	.	.
8D\L	.	4.D\)	.	8d\L	.	8A/L 8f#	.	4.d/	.	8Ree/	4.r	.	4.r	8D\ 8A	p	8d\	p	8f#\	p	4.r	.	8D\ 8A	.	4.ryy	.	8f#/	8d\	.	4.r	.	4.dd\)yy	.	4.dd\)	.	4.r	.
8D\	.	.	.	8d\	.	8A/ 8f#	.	.	.	8r	.	.	.	8r	.	8r	.	8r	.	.	.	8rBB	.	.	.	8r	8r	.	.	.	.	.	.	.	.	.
8D\J	.	.	.	8d\J	.	8A/J 8f#	.	.	.	8r	.	.	.	8r	.	8r	.	8r	.	.	.	8rBB	.	.	.	8r	8r	.	.	.	.	.	.	.	.	.
=9	=9	=9	=9	=9	=9	=9	=9	=9	=9	=9	=9	=9	=9	=9	=9	=9	=9	=9	=9	=9	=9	=9	=9	=9	=9	=9	=9	=9	=9	=9	=9	=9	=9	=9	=9	=9
!	!	!	!	!	!	!	!LO:DY:rj	!	!LO:DY:a	!	!	!	!	!	!	!	!	!	!	!	!	!	!	!	!	!	!	!	!	!	!	!LO:DY:a	!	!LO:DY:a	!	!
8AA/L	sf	16.E|\LL	.	8c#\L	.	8A/L 8g	sf	16.e|/LL	sf	8Ree/L	4.r	.	8Re/	8AA\ 8A	sf	8c#\	sf	8g\	sf	4.r	.	4.AA\ 4.A	sfp	4.ryy	.	4.g/	4.e\	sfp	4.r	.	16.ee|\LLyy	sfy	16.ee|\LL	sf	4.r	.
.	.	32G|\JJk	.	.	.	.	.	32g|/JJk	.	.	.	.	.	.	.	.	.	.	.	.	.	.	.	.	.	.	.	.	.	.	32gg|\JJkyy	.	32gg|\JJk	.	.	.
8AA/	.	8A|\L	.	8c#\	.	8A/ 8g	.	8a|/L	.	8r	.	.	8r	8r	.	8r	.	8r	.	.	.	.	.	.	.	.	.	.	.	.	8aa|\Lyy	.	8aa|\L	.	.	.
*	*	*	*	*	*	*	*	*	*	*tremolo	*	*	*	*	*	*	*	*	*	*	*	*	*	*	*	*	*	*	*	*	*	*	*	*	*	*
8AA/J	.	(16G\L	.	8c#\J	.	8A/J 8g	.	(16g/L	.	32Ree/LL	.	.	8r	8r	.	8r	.	8r	.	.	.	.	.	.	.	.	.	.	.	.	(16gg\Lyy	.	(16gg\L	.	.	.
.	.	.	.	.	.	.	.	.	.	32Ree/	.	.	.	.	.	.	.	.	.	.	.	.	.	.	.	.	.	.	.	.	.	.	.	.	.	.
.	.	16E\JJ)	.	.	.	.	.	16e/JJ)	.	32Ree/	.	.	.	.	.	.	.	.	.	.	.	.	.	.	.	.	.	.	.	.	16ee\JJ)yy	.	16ee\JJ)	.	.	.
.	.	.	.	.	.	.	.	.	.	32Ree/JJJ	.	.	.	.	.	.	.	.	.	.	.	.	.	.	.	.	.	.	.	.	.	.	.	.	.	.
*	*	*	*	*	*	*	*	*	*	*Xtremolo	*	*	*	*	*	*	*	*	*	*	*	*	*	*	*	*	*	*	*	*	*	*	*	*	*	*
!!LO:PB:g=original
=10	=10	=10	=10	=10	=10	=10	=10	=10	=10	=10	=10	=10	=10	=10	=10	=10	=10	=10	=10	=10	=10	=10	=10	=10	=10	=10	=10	=10	=10	=10	=10	=10	=10	=10	=10	=10
*	*	*	*	*	*	*	*	*	*	*	*	*	*	*	*	*	*	*	*	*	*	*	*	*	*	*	*	*	*	*	*^	*	*	*	*	*
*	*	*tremolo	*	*	*	*	*	*	*	*	*	*	*	*	*	*	*	*	*	*	*	*	*	*	*	*	*	*	*	*	*	*	*	*	*	*	*
8D\L	.	8D\Lyy	.	8d\L	.	8A/L 8f#	.	16.d|/LL	.	8Ree/	4.r	.	4.r	8D\ 8A	.	8d\	.	8f#\	p	4.r	.	8D\ 8A	.	4.ryy	.	8f#/	8d\	.	4.r	.	16.dd/LL	4.r	.	16.dd|\LL	.	4.r	.
.	.	.	.	.	.	.	.	32f#|/JJk	.	.	.	.	.	.	.	.	.	.	.	.	.	.	.	.	.	.	.	.	.	.	32ff#/JJk	.	.	32ff#|\JJk	.	.	.
8D\	.	8D\yy	.	8d\	.	8A/ 8f#	.	8b|/L	.	8r	.	.	.	8r	.	8r	.	8r	.	.	.	8rBB	.	.	.	8r	8r	.	.	.	8bbT/L	.	.	8bbT\L	.	.	.
8D\J	.	8D\Jyy	.	8d\J	.	8A/J 8f#	.	8a|/J	.	8r	.	.	.	8r	.	8r	.	8r	.	.	.	8rBB	.	.	.	8r	8r	.	.	.	8aa/J	.	.	8aa|\J	.	.	.
=11	=11	=11	=11	=11	=11	=11	=11	=11	=11	=11	=11	=11	=11	=11	=11	=11	=11	=11	=11	=11	=11	=11	=11	=11	=11	=11	=11	=11	=11	=11	=11	=11	=11	=11	=11	=11	=11
!	!	!	!	!	!LO:DY:rj	!	!LO:DY:rj	!	!	!	!	!	!	!	!	!	!	!	!	!	!	!	!	!	!	!	!	!LO:DY:a	!	!	!	!	!LO:DY:a	!	!LO:DY:a	!	!
8AA/L	sf	8AA/Lyy	sfy	8c#\L	sf	8A/L 8g	sf	16.e|/LL	sf	8Ree/	4.r	.	8Re/	8AA\ 8A	sf	8c#\	sf	8g\	sf	4.r	.	4.AA\ 4.A	.	4.ryy	.	4.g/	4.c#\	sf	4.r	.	16.ee/LL	4.r	sf	16.ee|\LL	sf	4.r	.
.	.	.	.	.	.	.	.	32g|/JJk	.	.	.	.	.	.	.	.	.	.	.	.	.	.	.	.	.	.	.	.	.	.	32gg/JJk	.	.	32gg|\JJk	.	.	.
8AA/	.	8AA/yy	.	8c#\	.	8A/ 8g	.	8a|/L	.	8r	.	.	8r	8r	.	8r	.	8r	.	.	.	.	.	.	.	.	.	.	.	.	8aa/L	.	.	8aa|\L	.	.	.
8AA/J	.	8AA/Jyy	.	8c#\J	.	8A/J 8g	.	(16g/L	.	32Ree/LLL	.	.	8r	8r	.	8r	.	8r	.	.	.	.	.	.	.	.	.	.	.	.	(16gg/L	.	.	(16gg\L	.	.	.
.	.	.	.	.	.	.	.	.	.	32Ree/	.	.	.	.	.	.	.	.	.	.	.	.	.	.	.	.	.	.	.	.	.	.	.	.	.	.	.
.	.	.	.	.	.	.	.	16e/JJ)	.	32Ree/	.	.	.	.	.	.	.	.	.	.	.	.	.	.	.	.	.	.	.	.	16ee/JJ)	.	.	16ee\JJ)	.	.	.
.	.	.	.	.	.	.	.	.	.	32Ree/JJJ	.	.	.	.	.	.	.	.	.	.	.	.	.	.	.	.	.	.	.	.	.	.	.	.	.	.	.
*Xtremolo	*	*Xtremolo	*	*Xtremolo	*	*Xtremolo	*	*	*	*	*	*	*	*	*	*	*	*	*	*	*	*	*	*	*	*	*	*	*	*	*	*	*	*	*	*	*
=12	=12	=12	=12	=12	=12	=12	=12	=12	=12	=12	=12	=12	=12	=12	=12	=12	=12	=12	=12	=12	=12	=12	=12	=12	=12	=12	=12	=12	=12	=12	=12	=12	=12	=12	=12	=12	=12
16D\	.	16D\yy	.	16d\	.	16A/ 16f#	.	16d/	.	16Ree/	4.r	.	4.r	16D\ 16A	p	16d\	.	16f#\	p	4.r	.	16D\ 16A	.	4.ryy	.	16f#/	16d\	.	4.r	.	16dd/	4.r	.	16dd\	.	4.r	.
16r	.	16ryy	.	16r	.	16r	.	16r	.	16r	.	.	.	16r	.	16r	.	16r	.	.	.	16r	.	.	.	16r	16ryy	.	.	.	16r	.	.	16r	.	.	.
4D\	.	4D\yy	.	4d\	.	4A/ 4f#	.	4dd^\	.	8Ree/	.	.	.	8D^<\ 8A	.	8d^<\	.	8f#^<\	.	.	.	8D\ 8A	.	.	.	8f#/	8d\	.	.	.	8ff#\ 8ddd	.	.	8ddd\	.	.	.
.	.	.	.	.	.	.	.	.	.	8r	.	.	.	8r	.	8r	.	8r	.	.	.	8rBB	.	.	.	8r	8ryy	.	.	.	8r	.	.	8r	.	.	.
*	*	*	*	*	*	*	*	*	*	*	*	*	*	*	*	*	*	*	*	*	*	*	*	*	*	*	*	*	*	*	*v	*v	*	*	*	*	*
*	*	*	*	*	*	*	*	*	*	*	*	*	*	*	*	*	*	*	*	*	*	*	*	*	*	*v	*v	*	*	*	*	*	*	*	*	*
=13:|!|:	=13:|!|:	=13:|!|:	=13:|!|:	=13:|!|:	=13:|!|:	=13:|!|:	=13:|!|:	=13:|!|:	=13:|!|:	=13:|!|:	=13:|!|:	=13:|!|:	=13:|!|:	=13:|!|:	=13:|!|:	=13:|!|:	=13:|!|:	=13:|!|:	=13:|!|:	=13:|!|:	=13:|!|:	=13:|!|:	=13:|!|:	=13:|!|:	=13:|!|:	=13:|!|:	=13:|!|:	=13:|!|:	=13:|!|:	=13:|!|:	=13:|!|:	=13:|!|:	=13:|!|:	=13:|!|:	=13:|!|:
*>C	*	*>C	*	*>C	*	*>C	*	*>C	*	*>C	*>C	*	*>C	*>C	*	*>C	*	*>C	*	*>C	*	*>C	*	*>C	*	*>C	*	*>C	*	*>C	*	*>C	*	*>C	*
*	*	*	*	*	*	*	*	*	*	*	*	*	*	*	*	*	*	*	*	*	*	*	*	*	*	*	*	*^	*	*	*	*	*	*	*
!LO:TX:t=P:problem:mixedbeam	!	!LO:TX:t=P:problem:mixedbeam	!	!	!	!	!	!	!	!	!	!	!	!	!	!	!	!	!	!	!	!	!	!	!	!	!	!	!	!	!	!	!	!	!	!
!	!LO:DY:rj	!	!LO:DY:rj	!	!LO:DY:rj	!	!	!	!LO:DY:rj	!	!	!	!	!	!LO:DY:rj	!	!LO:DY:rj	!	!LO:DY:rj	!	!	!	!LO:DY:rj	!	!	!	!	!	!	!	!	!LO:DY:rj	!	!	!LO:TX:t=B.	!LO:DY:rj
16.AA#X/LL	f	16.AA#X/LLyy	fy	16.A#X\LL 16.f#	f	16.f#/LL 16.cc#	.	16.f#\LL 16.cc# 16.ff#	f	16.Ree/LL	4Ra\	.	4.r	16.AA#X\LL 16.A#X	f	16.c#\LL	f	16.f#\LL	f	16.f#/LL 16.cc#	.	16.AA#X/LL 16.A#X	f	16.cc#X\LL	.	16.F#/LL 16.f#	.	16.ff#/LL	16.cc#\LL	.	16.ff#\LL 16.ccc#	f	4.r	.	16.fff#|\LL	f
32A#X\JJk	.	32A#X\JJkyy	.	32A#\JJk 32f#	.	32f#/JJk 32cc#	.	32ff#\JJk	.	32Ree/JJk	.	.	.	32AA#\JJk 32A#	.	32c#\JJk	.	32f#\JJk	.	32f#/JJk 32cc#	.	32AA#/JJk 32A#	.	32cc#\JJk	.	32F#/JJk 32f#	.	32ff#/JJk	32cc#\JJk	.	32ff#\JJk 32ccc#	.	.	.	32fff#|\JJk	.
8A#\L	.	8A#\Lyy	.	8A#\L 8f#	.	8f#/L 8cc#	.	8ff#\L	.	8Ree/L	.	.	.	8AA#\L 8A#	.	8c#\L	.	8f#\L	.	8f#/L 8cc#	.	8AA#/L 8A#	.	8cc#\L	.	8F#/L 8f#	.	8ff#/L	8cc#\L	.	8ff#\L 8ccc#	.	.	.	8fff#|\L	.
*	*	*	*	*	*	*	*	*	*	*tremolo	*	*	*	*	*	*	*	*	*	*	*	*	*	*	*	*	*	*	*	*	*	*	*	*	*	*
8A#\J	.	8A#\Jyy	.	8A#\J 8f#	.	8f#/J 8cc#	.	8cc#\J	.	32Ree/LL	8r	.	.	8AA#\J 8A#	.	8c#\J	.	8c#\J	.	8f#/J 8cc#	.	8AA#/J 8A#	.	8cc#\J	.	8F#/J 8f#	.	8cc#/J	8cc#\J	.	8ff#\J 8ccc#	.	.	.	8ccc#|\J	.
.	.	.	.	.	.	.	.	.	.	32Ree/	.	.	.	.	.	.	.	.	.	.	.	.	.	.	.	.	.	.	.	.	.	.	.	.	.	.
.	.	.	.	.	.	.	.	.	.	32Ree/	.	.	.	.	.	.	.	.	.	.	.	.	.	.	.	.	.	.	.	.	.	.	.	.	.	.
.	.	.	.	.	.	.	.	.	.	32Ree/JJJ	.	.	.	.	.	.	.	.	.	.	.	.	.	.	.	.	.	.	.	.	.	.	.	.	.	.
*	*	*	*	*	*	*	*	*	*	*Xtremolo	*	*	*	*	*	*	*	*	*	*	*	*	*	*	*	*	*	*	*	*	*	*	*	*	*	*
=14	=14	=14	=14	=14	=14	=14	=14	=14	=14	=14	=14	=14	=14	=14	=14	=14	=14	=14	=14	=14	=14	=14	=14	=14	=14	=14	=14	=14	=14	=14	=14	=14	=14	=14	=14	=14
*	*	*	*	*	*	*	*	*	*	*	*	*	*	*	*	*	*	*	*	*	*	*	*	*	*	*tremolo	*	*	*	*	*	*	*	*	*	*
8B\L	.	8B\Lyy	.	8B\L 8f#	.	8f#/L 8b	.	8f#^\L 8dd	.	8Ree/L	8Ra\L	.	8Rb\L	8BB\L 8B	.	8B\L	.	8d\L	.	8b\L 8dd	.	8BB/L 8B	.	8b\L 8dd	.	8F#\L 8f#	.	8dd/L	8b\L	.	8ff#\L 8bb	.	4.r	.	8ddd|\L	.
8F#\	.	8F#\yy	.	8c#\ 8f#	.	8f#/ 8a#X	.	8f#^\ 8cc#	.	8Ree/	8Ra\	.	8r	8FF#\ 8F#	.	8A#X\	.	8c#\	.	8a#X\ 8cc#	.	8FF#/ 8F#	.	8cc#X\	.	8F#\ 8f#	.	8cc#/	8a#X\	.	8ff#\ 8aa#X	.	.	.	8ccc#|\	.
8B\J	.	8B\Jyy	.	8B\J 8f#	.	8f#/J 8b	.	8f#^\J 8dd	.	8Ree/J	8Ra\J	.	8Rb\J	8BB\J 8B	.	8B\J	.	8d\J	.	8b\J 8dd	.	8BB/J 8B	.	8b\J 8dd	.	8F#\J 8f#	.	8dd/J	8b\J	.	8ff#\J 8bb	.	.	.	8ddd|\J	.
*	*	*	*	*	*	*	*	*	*	*	*	*	*	*	*	*	*	*	*	*	*	*	*	*	*	*Xtremolo	*	*	*	*	*	*	*	*	*	*
=15	=15	=15	=15	=15	=15	=15	=15	=15	=15	=15	=15	=15	=15	=15	=15	=15	=15	=15	=15	=15	=15	=15	=15	=15	=15	=15	=15	=15	=15	=15	=15	=15	=15	=15	=15	=15
*	*	*	*	*	*	*	*	*	*	*	*	*	*	*	*	*	*	*	*	*^	*	*	*	*^	*	*^	*	*	*	*	*	*	*	*	*	*
*tremolo	*	*tremolo	*	*tremolo	*	*tremolo	*	*	*	*tremolo	*	*	*	*	*	*	*	*	*	*	*	*	*tremolo	*	*	*	*	*	*	*	*	*	*	*tremolo	*	*	*	*	*
8E\L	.	8E\Lyy	.	8e\L	.	8B/L 8g#X	.	8e/ 8b 8ee	.	8Ree/	8Ra\	.	8Rb\	4.EE/ 4.E	.	4.B\	.	4.d\	.	8ee/	8b\L	.	8EE/L 8E	.	4.ee/	4.b\	.	4.e/	4.d\	.	8ee/	8g#X\	.	8dd\L 8gg#X	.	8eee|\	.	8eee|\	.
8E\	.	8E\yy	.	8e\	.	8B/ 8g#	.	16ee\LL	.	32Ree/LLL	8r	.	8r	.	.	.	.	.	.	(16ee/LL	8b\	.	8EE/ 8E	.	.	.	.	.	.	.	(16ee/LL	8g#\L	.	8dd\ 8gg#	.	(16eee\LL	.	(16eee\LL	.
.	.	.	.	.	.	.	.	.	.	32Ree/	.	.	.	.	.	.	.	.	.	.	.	.	.	.	.	.	.	.	.	.	.	.	.	.	.	.	.	.	.
.	.	.	.	.	.	.	.	16dd\	.	32Ree/	.	.	.	.	.	.	.	.	.	16dd/)	.	.	.	.	.	.	.	.	.	.	16dd/)	.	.	.	.	16ddd\)	.	16ddd\)	.
.	.	.	.	.	.	.	.	.	.	32Ree/	.	.	.	.	.	.	.	.	.	.	.	.	.	.	.	.	.	.	.	.	.	.	.	.	.	.	.	.	.
8E\J	.	8E\Jyy	.	8e\J	.	8B/J 8g#	.	16cc#\	.	32Ree/	8r	.	8r	.	.	.	.	.	.	16cc#'/	8g#X\J	.	8EE/J 8E	.	.	.	.	.	.	.	16cc#'/	8g#\J	.	8dd\J 8gg#	.	16ccc#|\	.	16ccc#|\	.
.	.	.	.	.	.	.	.	.	.	32Ree/	.	.	.	.	.	.	.	.	.	.	.	.	.	.	.	.	.	.	.	.	.	.	.	.	.	.	.	.	.
.	.	.	.	.	.	.	.	16b\JJ	.	32Ree/	.	.	.	.	.	.	.	.	.	16b'/JJ	.	.	.	.	.	.	.	.	.	.	16b'/JJ	.	.	.	.	16bb|\JJ	.	16bb|\JJ	.
.	.	.	.	.	.	.	.	.	.	32Ree/JJJ	.	.	.	.	.	.	.	.	.	.	.	.	.	.	.	.	.	.	.	.	.	.	.	.	.	.	.	.	.
*Xtremolo	*	*Xtremolo	*	*Xtremolo	*	*Xtremolo	*	*	*	*Xtremolo	*	*	*	*	*	*	*	*	*	*	*	*	*Xtremolo	*	*	*	*	*	*	*	*	*	*	*Xtremolo	*	*	*	*	*
*	*	*	*	*	*	*	*	*	*	*	*	*	*	*	*	*	*	*	*	*	*	*	*	*	*v	*v	*	*	*	*	*	*	*	*	*	*	*	*	*
!!LO:PB:g=original
=16	=16	=16	=16	=16	=16	=16	=16	=16	=16	=16	=16	=16	=16	=16	=16	=16	=16	=16	=16	=16	=16	=16	=16	=16	=16	=16	=16	=16	=16	=16	=16	=16	=16	=16	=16	=16	=16	=16
.	.	.	.	.	.	.	.	(8qb/	.	.	.	.	.	.	.	.	.	.	.	(8qb/	.	.	.	.	.	.	.	.	.	(8qb/	.	.	8qbb/	.	(8qbb/	.	(8qbb/	.
8A\L	.	8A\Lyy	.	8A\L 8e	.	8c#/L 8e	.	8a/L)	.	8Ree/L	8Ra\L	.	4.r	8AA\L 8E	.	8A^\L	.	8c#\L	.	8a/L)	8a\L	.	8AA^\L 8A	.	8cc#X\L 8ee	.	8e/L	8A\L	.	8a/L)	8a\L	.	8cc#\L 8aa	.	8aa\L)	.	8aa\L)	.
*	*	*	*	*	*	*	*	*	*	*tremolo	*	*	*	*	*	*	*	*	*	*	*	*	*	*	*	*	*	*	*	*	*	*	*	*	*	*	*	*
8E\	.	8E\yy	.	8A\ 8e	.	8d/ 8e	.	8g#X'/	.	32Ree/LL	8Ra\	.	.	8EE\ 8E	.	8B^\	.	8d\	.	8b/	8g#X\	.	8EE^\ 8E	.	8b\ 8ee	.	8e/	8d\	.	8b/	8g#X\	.	8dd\ 8gg#X	.	8gg#X'\	.	8gg#X'\	.
.	.	.	.	.	.	.	.	.	.	32Ree/	.	.	.	.	.	.	.	.	.	.	.	.	.	.	.	.	.	.	.	.	.	.	.	.	.	.	.	.
.	.	.	.	.	.	.	.	.	.	32Ree/	.	.	.	.	.	.	.	.	.	.	.	.	.	.	.	.	.	.	.	.	.	.	.	.	.	.	.	.
.	.	.	.	.	.	.	.	.	.	32Ree/JJ	.	.	.	.	.	.	.	.	.	.	.	.	.	.	.	.	.	.	.	.	.	.	.	.	.	.	.	.
*	*	*	*	*	*	*	*	*	*	*Xtremolo	*	*	*	*	*	*	*	*	*	*	*	*	*	*	*	*	*	*	*	*	*	*	*	*	*	*	*	*
8AA\J	.	8AA\Jyy	.	8A\J 8e	.	8c#/J 8e	.	8a'/J	.	8Ree/J	8Ra\J	.	.	8AA\J 8E	.	8A^\J	.	8c#\J	.	8a/J	8a\J	.	8AA^\J 8A	.	8cc#\J 8ee	.	8e/J	8A\J	.	8cc#/J	8a\J	.	8cc#\J 8aa	.	8aa'\J	.	8aa'\J	.
*	*	*	*	*	*	*	*	*	*	*	*	*	*	*	*	*	*	*	*	*v	*v	*	*	*	*	*	*v	*v	*	*	*	*	*	*	*	*	*	*
=17	=17	=17	=17	=17	=17	=17	=17	=17	=17	=17	=17	=17	=17	=17	=17	=17	=17	=17	=17	=17	=17	=17	=17	=17	=17	=17	=17	=17	=17	=17	=17	=17	=17	=17	=17	=17
16.AA#X\LL	.	16.AA#X\LLyy	.	16.A#X\LL 16.f#	.	16.f#\LL 16.cc#	.	16.f#\LL 16.cc# 16.ff#	.	16.Ree/LL	8Ra\	.	4.r	16.AA#X\LL 16.F#	.	16.c#\LL	.	16.f#\LL	.	16.f#/LL 16.cc#	.	16.AA#X/LL 16.A#X	.	16.cc#X\LL	.	16.F#/LL 16.f#	.	16.ff#/LL	16.cc#\LL	.	16.ff#\LL 16.ccc#	.	4.r	.	16.fff#\LL	.
32A#X\JJk	.	32A#X\JJkyy	.	32A#\JJk 32f#	.	32f#\JJk 32cc#	.	32ff#\JJk	.	32Ree/JJk	.	.	.	32AA#\JJk 32F#	.	32c#\JJk	.	32f#\JJk	.	32f#/JJk 32cc#	.	32AA#/JJk 32A#	.	32cc#\JJk	.	32F#/JJk 32f#	.	32ff#/JJk	32cc#\JJk	.	32ff#\JJk 32ccc#	.	.	.	32fff#\JJk	.
8A#\L	.	8A#\Lyy	.	8A#\L 8f#	.	8f#\L 8cc#	.	8ff#\L	.	8Ree/L	8r	.	.	8AA#\L 8F#	.	8c#\L	.	8f#\L	.	8f#/L 8cc#	.	8AA#/L 8A#	.	8cc#\L	.	8F#/L 8f#	.	8ff#/L	8cc#\L	.	8ff#\L 8ccc#	.	.	.	8fff#\L	.
*	*	*	*	*	*	*	*	*	*	*tremolo	*	*	*	*	*	*	*	*	*	*	*	*	*	*	*	*	*	*	*	*	*	*	*	*	*	*
8A#\J	.	8A#\Jyy	.	8A#\J 8f#	.	8f#\J 8cc#	.	8f#\J 8cc#	.	32Ree/LL	8r	.	.	8AA#\J 8F#	.	8c#\J	.	8c#\J	.	8f#/J 8cc#	.	8AA#/J 8A#	.	8cc#\J	.	8F#/J 8f#	.	8cc#/J	8cc#\J	.	8ff#\J 8ccc#	.	.	.	8bb\J	.
.	.	.	.	.	.	.	.	.	.	32Ree/	.	.	.	.	.	.	.	.	.	.	.	.	.	.	.	.	.	.	.	.	.	.	.	.	.	.
.	.	.	.	.	.	.	.	.	.	32Ree/	.	.	.	.	.	.	.	.	.	.	.	.	.	.	.	.	.	.	.	.	.	.	.	.	.	.
.	.	.	.	.	.	.	.	.	.	32Ree/JJJ	.	.	.	.	.	.	.	.	.	.	.	.	.	.	.	.	.	.	.	.	.	.	.	.	.	.
*	*	*	*	*	*	*	*	*	*	*Xtremolo	*	*	*	*	*	*	*	*	*	*	*	*	*	*	*	*	*	*	*	*	*	*	*	*	*	*
=18	=18	=18	=18	=18	=18	=18	=18	=18	=18	=18	=18	=18	=18	=18	=18	=18	=18	=18	=18	=18	=18	=18	=18	=18	=18	=18	=18	=18	=18	=18	=18	=18	=18	=18	=18	=18
*	*	*	*	*	*	*	*	*	*	*tremolo	*tremolo	*	*	*	*	*	*	*	*	*	*	*	*	*	*	*tremolo	*	*	*	*	*	*	*	*	*	*
8B\L	.	8B\Lyy	.	8B\L 8f#	.	8f#/L 8b	.	8f#^\L 8dd	.	8Ree/L	8Ra\L	.	4.r	8BB\L 8F#	.	8B\L	.	8d^\L	.	8b\L 8dd	.	8BB^/L 8B	.	8b\L 8dd	.	8F#/L 8f#	.	8dd/L	8b\L	.	8ff#\L 8bb	.	4.r	.	8ddd\L	.
8F#\	.	8F#\yy	.	8c#\ 8f#	.	8f#/ 8a#X	.	8f#^\ 8cc#	.	8Ree/	8Ra\	.	.	8FF#\ 8F#	.	8A#X\	.	8c#^\	.	8a#X\ 8cc#	.	8FF#^/ 8F#	.	8cc#X\	.	8F#/ 8f#	.	8cc#/	8a#X\	.	8ff#\ 8aa#X	.	.	.	8ccc#\	.
8B\J	.	8B\Jyy	.	8B\J 8f#	.	8f#/J 8b	.	8f#^\J 8dd	.	8Ree/J	8Ra\J	.	.	8BB\J 8F#	.	8B\J	.	8d^\J	.	8b\J 8dd	.	8BB^/J 8B	.	8b\J 8dd	.	8F#/J 8f#	.	8dd/J	8b\J	.	8ff#\J 8bb	.	.	.	8ddd\J	.
*	*	*	*	*	*	*	*	*	*	*Xtremolo	*Xtremolo	*	*	*	*	*	*	*	*	*	*	*	*	*	*	*	*	*	*	*	*	*	*	*	*	*
=19	=19	=19	=19	=19	=19	=19	=19	=19	=19	=19	=19	=19	=19	=19	=19	=19	=19	=19	=19	=19	=19	=19	=19	=19	=19	=19	=19	=19	=19	=19	=19	=19	=19	=19	=19	=19
*	*	*	*	*	*	*	*	*	*	*	*	*	*	*	*	*	*	*	*	*^	*	*	*	*^	*	*^	*	*	*	*	*	*	*	*	*	*
*tremolo	*	*tremolo	*	*tremolo	*	*tremolo	*	*	*	*	*	*	*	*	*	*	*	*	*	*	*	*	*tremolo	*	*	*	*	*	*tremolo	*	*	*tremolo	*	*tremolo	*	*	*	*	*
8E\L	.	8E\Lyy	.	8d\L 8e	.	8B/L 8g#X	.	8e\ 8b 8ee	.	8Ree/	8Ra\	.	4.r	4.EE/ 4.E	.	4.B\	.	4.d\	.	8ee/	8b\	.	8EE/L 8E	.	4.ee/	4.b\	.	8e/L	8d\L	.	8ee/	8g#X\L	.	8dd\L 8gg#X	.	8eee\	.	8eee\	.
*	*	*	*	*	*	*	*	*	*	*tremolo	*	*	*	*	*	*	*	*	*	*	*	*	*	*	*	*	*	*	*	*	*	*	*	*	*	*	*	*	*
8E\	.	8E\yy	.	8d\ 8e	.	8B/ 8g#	.	16ee\LL	.	32Ree/LLL	8r	.	.	.	.	.	.	.	.	(16ee/LL	8b\L	.	8EE/ 8E	.	.	.	.	8e/	8d\	.	(16ee/LL	8g#\	.	8dd\ 8gg#	.	(16eee\LL	.	(16eee\LL	.
.	.	.	.	.	.	.	.	.	.	32Ree/	.	.	.	.	.	.	.	.	.	.	.	.	.	.	.	.	.	.	.	.	.	.	.	.	.	.	.	.	.
.	.	.	.	.	.	.	.	16dd\	.	32Ree/	.	.	.	.	.	.	.	.	.	16dd/)	.	.	.	.	.	.	.	.	.	.	16dd/)	.	.	.	.	16ddd\)	.	16ddd\)	.
.	.	.	.	.	.	.	.	.	.	32Ree/	.	.	.	.	.	.	.	.	.	.	.	.	.	.	.	.	.	.	.	.	.	.	.	.	.	.	.	.	.
8E\J	.	8E\Jyy	.	8d\J 8e	.	8B/J 8g#	.	16cc#\	.	32Ree/	8r	.	.	.	.	.	.	.	.	16cc#'/	8g#X\J	.	8EE/J 8E	.	.	.	.	8e/J	8d\J	.	16cc#'/	8g#\J	.	8dd\J 8gg#	.	16ccc#'\	.	16ccc#'\	.
.	.	.	.	.	.	.	.	.	.	32Ree/	.	.	.	.	.	.	.	.	.	.	.	.	.	.	.	.	.	.	.	.	.	.	.	.	.	.	.	.	.
.	.	.	.	.	.	.	.	16b\JJ	.	32Ree/	.	.	.	.	.	.	.	.	.	16b'/JJ	.	.	.	.	.	.	.	.	.	.	16b'/JJ	.	.	.	.	16bb'\JJ	.	16bb'\JJ	.
.	.	.	.	.	.	.	.	.	.	32Ree/JJJ	.	.	.	.	.	.	.	.	.	.	.	.	.	.	.	.	.	.	.	.	.	.	.	.	.	.	.	.	.
*Xtremolo	*	*Xtremolo	*	*Xtremolo	*	*Xtremolo	*	*	*	*Xtremolo	*	*	*	*	*	*	*	*	*	*	*	*	*Xtremolo	*	*	*	*	*Xtremolo	*Xtremolo	*	*	*Xtremolo	*	*Xtremolo	*	*	*	*	*
*	*	*	*	*	*	*	*	*	*	*	*	*	*	*	*	*	*	*	*	*	*	*	*	*	*v	*v	*	*	*	*	*	*	*	*	*	*	*	*	*
*	*	*	*	*	*	*	*	*	*	*	*	*	*	*	*	*	*	*	*	*	*	*	*	*	*	*	*v	*v	*	*	*	*	*	*	*	*	*	*
=20	=20	=20	=20	=20	=20	=20	=20	=20	=20	=20	=20	=20	=20	=20	=20	=20	=20	=20	=20	=20	=20	=20	=20	=20	=20	=20	=20	=20	=20	=20	=20	=20	=20	=20	=20	=20	=20
*	*	*	*	*	*	*	*	*	*	*	*tremolo	*	*	*	*	*	*	*	*	*	*	*	*	*	*	*	*	*	*	*	*	*	*	*	*	*	*
.	.	.	.	.	.	.	.	(8qb/	.	.	.	.	.	.	.	.	.	.	.	(8qb/	.	.	.	.	.	.	.	.	8qb/	.	.	(8qbb/	.	(8qbb/	.	(8qbb/	.
8A\L	.	8A\Lyy	.	8A\L 8e	.	8c#/L 8e	.	8a/L)	.	8Ree/L	8Ra\L	.	4.r	8AA/L 8E	.	8A\L	.	8c#^\L	.	8a/L)	8a\L	.	8AA/L 8A	.	8cc#X\L 8ee	.	8A/L 8e	.	8a/L	8a\L	.	8cc#\L) 8aa	.	8aa\L)	.	8aa\L)	.
*	*	*	*	*	*	*	*	*	*	*tremolo	*	*	*	*	*	*	*	*	*	*	*	*	*	*	*	*	*	*	*	*	*	*	*	*	*	*	*
8E\	.	8E\yy	.	8B\ 8e	.	8d/ 8e	.	8g#X'/	.	32Ree/LL	8Ra\	.	.	8EE/ 8E	.	8B\	.	8d^\	.	8b/	8g#X\	.	8EE/ 8E	.	8b\ 8ee	.	8d/ 8e	.	8b/	8g#X\	.	8dd'\ 8gg#X	.	8gg#X'\	.	8gg#X'\	.
.	.	.	.	.	.	.	.	.	.	32Ree/	.	.	.	.	.	.	.	.	.	.	.	.	.	.	.	.	.	.	.	.	.	.	.	.	.	.	.
.	.	.	.	.	.	.	.	.	.	32Ree/	.	.	.	.	.	.	.	.	.	.	.	.	.	.	.	.	.	.	.	.	.	.	.	.	.	.	.
.	.	.	.	.	.	.	.	.	.	32Ree/JJ	.	.	.	.	.	.	.	.	.	.	.	.	.	.	.	.	.	.	.	.	.	.	.	.	.	.	.
*	*	*	*	*	*	*	*	*	*	*Xtremolo	*	*	*	*	*	*	*	*	*	*	*	*	*	*	*	*	*	*	*	*	*	*	*	*	*	*	*
8AA\J	.	8AA\Jyy	.	8A\J 8e	.	8c#/J 8e	.	8a'/J	.	8Ree/J	8Ra\J	.	.	8AA/J 8E	.	8A\J	.	8c#^\J	.	8a/J	8a\J	.	8AA/J 8A	.	8cc#\J 8ee	.	8A/J 8e	.	8cc#/J	8a\J	.	8cc#'\J 8aa	.	8aa'\J	.	8aa'\J	.
*	*	*	*	*	*	*	*	*	*	*	*Xtremolo	*	*	*	*	*	*	*	*	*	*	*	*	*	*	*	*	*	*	*	*	*	*	*	*	*	*
*	*	*	*	*	*	*	*	*	*	*	*	*	*	*	*	*	*	*	*	*v	*v	*	*	*	*	*	*	*	*v	*v	*	*	*	*	*	*	*
=21	=21	=21	=21	=21	=21	=21	=21	=21	=21	=21	=21	=21	=21	=21	=21	=21	=21	=21	=21	=21	=21	=21	=21	=21	=21	=21	=21	=21	=21	=21	=21	=21	=21	=21	=21
*	*	*	*	*	*	*	*	*	*	*	*	*	*	*	*	*	*	*	*	*	*	*	*	*	*	*^	*	*	*	*^	*	*	*	*	*
*tremolo	*	*tremolo	*	*tremolo	*	*tremolo	*	*	*	*	*	*	*	*	*	*	*	*	*	*	*	*	*	*	*	*	*	*	*	*	*	*	*	*	*	*	*
!	!	!	!	!	!	!	!LO:DY:a:rj	!	!LO:DY:a	!	!	!	!	!	!	!	!	!	!	!	!	!	!LO:DY:a	!	!	!	!	!	!	!	!	!	!LO:DY:a	!	!	!	!
8AA/L	sf	8AA/Lyy	sfy	8c#\L	sf	8A/L 8g	sf	16.e|/LL	sf	8Ree/	4.r	.	8Re/	8AA\ 8A	.	8c#\	sf	8g\	sf	4.r	.	4.AA\ 4.A	sf	4.r	.	4.g/	4.c#\	sf	4.r	.	16.ee/LL	4.r	sf	16.ee|\LL	.	4.r	.
.	.	.	.	.	.	.	.	32gn|/JJk	.	.	.	.	.	.	.	.	.	.	.	.	.	.	.	.	.	.	.	.	.	.	32gg/JJk	.	.	32gg|\JJk	.	.	.
8AA/	.	8AA/yy	.	8c#\	.	8A/ 8g	.	8a|/L	.	8r	.	.	8r	8r	.	8r	.	8r	.	.	.	.	.	.	.	.	.	.	.	.	8aa/L	.	.	8aa'\L	.	.	.
8AA/J	.	8AA/Jyy	.	8c#\J	.	8A/J 8g	.	(16g/L	.	32Ree/LLL	.	.	8r	8r	.	8r	.	8r	.	.	.	.	.	.	.	.	.	.	.	.	16gg/L	.	.	(16gg\L	.	.	.
.	.	.	.	.	.	.	.	.	.	32Ree/	.	.	.	.	.	.	.	.	.	.	.	.	.	.	.	.	.	.	.	.	.	.	.	.	.	.	.
.	.	.	.	.	.	.	.	16e/JJ)	.	32Ree/	.	.	.	.	.	.	.	.	.	.	.	.	.	.	.	.	.	.	.	.	16ee/JJ	.	.	16ee\JJ)	.	.	.
.	.	.	.	.	.	.	.	.	.	32Ree/JJJ	.	.	.	.	.	.	.	.	.	.	.	.	.	.	.	.	.	.	.	.	.	.	.	.	.	.	.
*	*	*Xtremolo	*	*	*	*	*	*	*	*	*	*	*	*	*	*	*	*	*	*	*	*	*	*	*	*	*	*	*	*	*	*	*	*	*	*	*
*	*	*	*	*	*	*	*	*	*	*	*	*	*	*	*	*	*	*	*	*	*	*	*	*	*	*	*	*	*	*	*v	*v	*	*	*	*	*
!!LO:PB:g=original
=22	=22	=22	=22	=22	=22	=22	=22	=22	=22	=22	=22	=22	=22	=22	=22	=22	=22	=22	=22	=22	=22	=22	=22	=22	=22	=22	=22	=22	=22	=22	=22	=22	=22	=22	=22	=22
!!LO:TX:a:t=A. B.
8D\Lyy	.	16.D|\LLyy	.	8d\Lyy	.	8A/Lyy 8f#yy	.	16.d|/LL	.	8Ree/yy	4.ryy	.	4.ryy	8D\yy 8Ayy	py	8d\yy	py	8f#\yy	py	4.ryy	.	8D\yy 8Ayy	.	4.ryy	.	8f#/yy	8d\yy	.	4.ryy	.	16.dd|\LLyy	.	16.dd|\LLyy	.	4.ryy	.
.	.	32F#|\JJkyy	.	.	.	.	.	32f#|/JJk	.	.	.	.	.	.	.	.	.	.	.	.	.	.	.	.	.	.	.	.	.	.	32ff#|\JJkyy	.	32ff#|\JJkyy	.	.	.
8D\yy	.	8B|\Lyy	.	8d\yy	.	8A/yy 8f#yy	.	8b|/L	.	8ryy	.	.	.	8ryy	.	8ryy	.	8ryy	.	.	.	8rBByy	.	.	.	8ryy	8ryy	.	.	.	8bbT\Lyy	.	8bbT\Lyy	.	.	.
8D\Jyy	.	8A|\Jyy	.	8d\Jyy	.	8A/Jyy 8f#yy	.	8a|/J	.	8ryy	.	.	.	8ryy	.	8ryy	.	8ryy	.	.	.	8rBByy	.	.	.	8ryy	8ryy	.	.	.	8aa|\Jyy	.	8aa|\Jyy	.	.	.
=23	=23	=23	=23	=23	=23	=23	=23	=23	=23	=23	=23	=23	=23	=23	=23	=23	=23	=23	=23	=23	=23	=23	=23	=23	=23	=23	=23	=23	=23	=23	=23	=23	=23	=23	=23	=23
!	!	!	!	!	!	!	!LO:DY:rj	!	!	!	!	!	!	!	!	!	!	!	!	!	!	!	!	!	!	!	!	!	!	!	!	!LO:DY:a	!	!LO:DY:a	!	!
8AA/Lyy	sfy	16.E|\LLyy	.	8c#\Lyy	.	8A/Lyy 8gyy	sfy	16.e/LL	.	8Ree/Lyy	4.ryy	.	8Re/yy	8AA\yy 8Ayy	sfy	8c#\yy	sfy	8g\yy	sfy	4.ryy	.	4.AA\yy 4.Ayy	sfpy	4.ryy	.	4.g/yy	4.c#\yy	sfpy	4.ryy	.	16.ee|\LLyy	sfy	16.ee|\LLyy	sfy	4.ryy	.
.	.	32G|\JJkyy	.	.	.	.	.	32g/JJk	.	.	.	.	.	.	.	.	.	.	.	.	.	.	.	.	.	.	.	.	.	.	32gg|\JJkyy	.	32gg|\JJkyy	.	.	.
8AA/yy	.	8A|\Lyy	.	8c#\yy	.	8A/yy 8gyy	.	8a/L	.	8ryy	.	.	8ryy	8ryy	.	8ryy	.	8ryy	.	.	.	.	.	.	.	.	.	.	.	.	8aa|\Lyy	.	8aa|\Lyy	.	.	.
*	*	*	*	*	*	*	*	*	*	*tremoloyy	*	*	*	*	*	*	*	*	*	*	*	*	*	*	*	*	*	*	*	*	*	*	*	*	*	*
8AA/Jyy	.	(16G\Lyy	.	8c#\Jyy	.	8A/Jyy 8gyy	.	(16g/L	.	32Ree/LLyy	.	.	8ryy	8ryy	.	8ryy	.	8ryy	.	.	.	.	.	.	.	.	.	.	.	.	(16gg\Lyy	.	(16gg\Lyy	.	.	.
.	.	.	.	.	.	.	.	.	.	32Ree/yy	.	.	.	.	.	.	.	.	.	.	.	.	.	.	.	.	.	.	.	.	.	.	.	.	.	.
.	.	16E\JJ)yy	.	.	.	.	.	16e/JJ)	.	32Ree/yy	.	.	.	.	.	.	.	.	.	.	.	.	.	.	.	.	.	.	.	.	16ee\JJ)yy	.	16ee\JJ)yy	.	.	.
.	.	.	.	.	.	.	.	.	.	32Ree/JJJyy	.	.	.	.	.	.	.	.	.	.	.	.	.	.	.	.	.	.	.	.	.	.	.	.	.	.
*	*	*	*	*	*	*	*	*	*	*Xtremolo	*	*	*	*	*	*	*	*	*	*	*	*	*	*	*	*	*	*	*	*	*	*	*	*	*	*
=24	=24	=24	=24	=24	=24	=24	=24	=24	=24	=24	=24	=24	=24	=24	=24	=24	=24	=24	=24	=24	=24	=24	=24	=24	=24	=24	=24	=24	=24	=24	=24	=24	=24	=24	=24	=24
.	.	(32qqF#/LLLyy	.	.	.	.	.	(32qqf#/LLL	.	.	.	.	.	.	.	.	.	.	.	.	.	.	.	.	.	.	.	.	.	.	(>32qqff#/LLLyy	.	(>32qqff#/LLLyy	.	.	.
.	.	32qqE/JJJyy	.	.	.	.	.	32qqe/JJJ	.	.	.	.	.	.	.	.	.	.	.	.	.	.	.	.	.	.	.	.	.	.	32qqee/JJJyy	.	32qqee/JJJyy	.	.	.
8D\Lyy	.	4.D\)yy	.	8d\Lyy	.	8A/Lyy 8f#yy	.	4.d/)	.	8Ree/yy	4.ryy	.	4.ryy	8D\yy 8Ayy	py	8d\yy	py	8f#\yy	py	4.ryy	.	8D\yy 8Ayy	.	4.ryy	.	8f#/yy	8d\yy	.	4.ryy	.	4.dd\)yy	.	4.dd\)yy	.	4.ryy	.
8D\yy	.	.	.	8d\yy	.	8A/yy 8f#yy	.	.	.	8ryy	.	.	.	8ryy	.	8ryy	.	8ryy	.	.	.	8rBByy	.	.	.	8ryy	8ryy	.	.	.	.	.	.	.	.	.
8D\Jyy	.	.	.	8d\Jyy	.	8A/Jyy 8f#yy	.	.	.	8ryy	.	.	.	8ryy	.	8ryy	.	8ryy	.	.	.	8rBByy	.	.	.	8ryy	8ryy	.	.	.	.	.	.	.	.	.
=25	=25	=25	=25	=25	=25	=25	=25	=25	=25	=25	=25	=25	=25	=25	=25	=25	=25	=25	=25	=25	=25	=25	=25	=25	=25	=25	=25	=25	=25	=25	=25	=25	=25	=25	=25	=25
!	!	!	!	!	!	!	!LO:DY:rj	!	!	!	!	!	!	!	!	!	!	!	!	!	!	!	!	!	!	!	!	!	!	!	!	!LO:DY:a	!	!LO:DY:a	!	!
8AA/Lyy	sfy	16.E|\LLyy	.	8c#\Lyy	.	8A/Lyy 8gyy	sfy	16.e|/LL	.	8Ree/Lyy	4.ryy	.	8Re/yy	8AA\yy 8Ayy	sfy	8c#\yy	sfy	8g\yy	sfy	4.ryy	.	4.AA\yy 4.Ayy	sfpy	4.ryy	.	4.g/yy	4.c#\yy	sfpy	4.ryy	.	16.ee|\LLyyy	sfy	16.ee|\LLyy	sfy	4.ryy	.
.	.	32G|\JJkyy	.	.	.	.	.	32g|/JJk	.	.	.	.	.	.	.	.	.	.	.	.	.	.	.	.	.	.	.	.	.	.	32gg|\JJkyy	.	32gg|\JJkyy	.	.	.
8AA/yy	.	8A|\Lyy	.	8c#\yy	.	8A/yy 8gyy	.	8a|/L	.	8ryy	.	.	8ryy	8ryy	.	8ryy	.	8ryy	.	.	.	.	.	.	.	.	.	.	.	.	8aa|\Lyy	.	8aa|\Lyy	.	.	.
*	*	*	*	*	*	*	*	*	*	*tremoloyy	*	*	*	*	*	*	*	*	*	*	*	*	*	*	*	*	*	*	*	*	*	*	*	*	*	*
8AA/Jyy	.	(16G\Lyy	.	8c#\Jyy	.	8A/Jyy 8gyy	.	(16g/L	.	32Ree/LLyy	.	.	8ryy	8ryy	.	8ryy	.	8ryy	.	.	.	.	.	.	.	.	.	.	.	.	(16gg\Lyy	.	(16gg\Lyy	.	.	.
.	.	.	.	.	.	.	.	.	.	32Ree/yy	.	.	.	.	.	.	.	.	.	.	.	.	.	.	.	.	.	.	.	.	.	.	.	.	.	.
.	.	16E\JJ)yy	.	.	.	.	.	16e/JJ)	.	32Ree/yy	.	.	.	.	.	.	.	.	.	.	.	.	.	.	.	.	.	.	.	.	16ee\JJ)yy	.	16ee\JJ)yy	.	.	.
.	.	.	.	.	.	.	.	.	.	32Ree/JJJyy	.	.	.	.	.	.	.	.	.	.	.	.	.	.	.	.	.	.	.	.	.	.	.	.	.	.
*	*	*	*	*	*	*	*	*	*	*Xtremolo	*	*	*	*	*	*	*	*	*	*	*	*	*	*	*	*	*	*	*	*	*	*	*	*	*	*
=26	=26	=26	=26	=26	=26	=26	=26	=26	=26	=26	=26	=26	=26	=26	=26	=26	=26	=26	=26	=26	=26	=26	=26	=26	=26	=26	=26	=26	=26	=26	=26	=26	=26	=26	=26	=26
*	*	*tremolo	*	*	*	*	*	*	*	*	*	*	*	*	*	*	*	*	*	*	*	*	*	*	*	*	*	*	*	*	*	*	*	*	*	*
8D\Lyy	.	8D\Lyy	.	8d\Lyy	.	8A/Lyy 8f#yy	.	16.d/LL	.	8Ree/yy	4.ryy	.	4.ryy	8D\yy 8Ayy	.	8d\yy	.	8f#\yy	py	4.ryy	.	8D\yy 8Ayy	.	4.ryy	.	8f#/yy	8d\yy	.	4.ryy	.	16.dd|\LLyy	.	16.dd|\LLyy	.	4.ryy	.
.	.	.	.	.	.	.	.	32f#/JJk	.	.	.	.	.	.	.	.	.	.	.	.	.	.	.	.	.	.	.	.	.	.	32ff#|\JJkyy	.	32ff#|\JJkyy	.	.	.
8D\yy	.	8D\yy	.	8d\yy	.	8A/yy 8f#yy	.	8b/L	.	8ryy	.	.	.	8ryy	.	8ryy	.	8ryy	.	.	.	8rBByy	.	.	.	8ryy	8ryy	.	.	.	8bbT\Lyy	.	8bbT\Lyy	.	.	.
8D\Jyy	.	8D\Jyy	.	8d\Jyy	.	8A/Jyy 8f#yy	.	8a/J	.	8ryy	.	.	.	8ryy	.	8ryy	.	8ryy	.	.	.	8rBByy	.	.	.	8ryy	8ryy	.	.	.	8aa|\Jyy	.	8aa|\Jyy	.	.	.
=27	=27	=27	=27	=27	=27	=27	=27	=27	=27	=27	=27	=27	=27	=27	=27	=27	=27	=27	=27	=27	=27	=27	=27	=27	=27	=27	=27	=27	=27	=27	=27	=27	=27	=27	=27	=27
!	!	!	!	!	!LO:DY:rj	!	!LO:DY:rj	!	!	!	!	!	!	!	!	!	!	!	!	!	!	!	!	!	!	!	!	!LO:DY:a	!	!	!	!LO:DY:a	!	!LO:DY:a	!	!
8AA/Lyy	sfy	8AA/Lyy	sfy	8c#\Lyy	sfy	8A/Lyy 8gyy	sfy	16.e/LL	.	8Ree/yy	4.ryy	.	8Re/yy	8AA\yy 8Ayy	sfy	8c#\yy	sfy	8g\yy	sfy	4.ryy	.	4.AA\yy 4.Ayy	sfpy	4.ryy	.	4.g/yy	4.c#\yy	sfy	4.ryy	.	16.ee|\LLyy	sfy	16.ee|\LLyy	sfy	4.ryy	.
.	.	.	.	.	.	.	.	32g/JJk	.	.	.	.	.	.	.	.	.	.	.	.	.	.	.	.	.	.	.	.	.	.	32gg|\JJkyy	.	32gg|\JJkyy	.	.	.
8AA/yy	.	8AA/yy	.	8c#\yy	.	8A/yy 8gyy	.	8a/L	.	8ryy	.	.	8ryy	8ryy	.	8ryy	.	8ryy	.	.	.	.	.	.	.	.	.	.	.	.	8aa|\Lyy	.	8aa|\Lyy	.	.	.
8AA/Jyy	.	8AA/Jyy	.	8c#\Jyy	.	8A/Jyy 8gyy	.	16g/L	.	32Ree/LLLyy	.	.	8ryy	8ryy	.	8ryy	.	8ryy	.	.	.	.	.	.	.	.	.	.	.	.	(16gg\Lyy	.	(16gg\Lyy	.	.	.
.	.	.	.	.	.	.	.	.	.	32Ree/yy	.	.	.	.	.	.	.	.	.	.	.	.	.	.	.	.	.	.	.	.	.	.	.	.	.	.
.	.	.	.	.	.	.	.	16e/JJ	.	32Ree/yy	.	.	.	.	.	.	.	.	.	.	.	.	.	.	.	.	.	.	.	.	16ee\JJ)yy	.	16ee\JJ)yy	.	.	.
.	.	.	.	.	.	.	.	.	.	32Ree/JJJyy	.	.	.	.	.	.	.	.	.	.	.	.	.	.	.	.	.	.	.	.	.	.	.	.	.	.
*Xtremolo	*	*Xtremolo	*	*Xtremolo	*	*Xtremolo	*	*	*	*	*	*	*	*	*	*	*	*	*	*	*	*	*	*	*	*	*	*	*	*	*	*	*	*	*	*
=28	=28	=28	=28	=28	=28	=28	=28	=28	=28	=28	=28	=28	=28	=28	=28	=28	=28	=28	=28	=28	=28	=28	=28	=28	=28	=28	=28	=28	=28	=28	=28	=28	=28	=28	=28	=28
16D\yy	.	16D\yy	.	16d\yy	.	16A/yy 16f#yy	.	16d/	.	16Ree/yy	4.ryy	.	4.ryy	16D\yy 16Ayy	py	16d\yy	.	16f#\yy	py	4.ryy	.	16D\yy 16Ayy	.	4.ryy	.	16f#/yy	16d\yy	.	4.ryy	.	16dd\yy	.	16dd\yy	.	4.ryy	.
16ryy	.	16ryy	.	16ryy	.	16ryy	.	16r	.	16ryy	.	.	.	16ryy	.	16ryy	.	16ryy	.	.	.	16ryy	.	.	.	16ryy	16ryy	.	.	.	16ryy	.	16ryy	.	.	.
4D\yy	.	4D\yy	.	4d\yy	.	4A/yy 4f#yy	.	4dd^\	.	8Ree/yy	.	.	.	8D^<\yy 8Ayy	.	8d^<\yy	.	8f#^<\yy	.	.	.	8D\yy 8Ayy	.	.	.	8f#/yy	8d\yy	.	.	.	8ddd\yy	.	8ddd\yy	.	.	.
.	.	.	.	.	.	.	.	.	.	8ryy	.	.	.	8ryy	.	8ryy	.	8ryy	.	.	.	8rBByy	.	.	.	8ryy	8ryy	.	.	.	8ryy	.	8ryy	.	.	.
*	*	*	*	*	*	*	*	*	*	*v	*v	*	*	*	*	*	*	*	*	*	*	*	*	*	*	*v	*v	*	*	*	*	*	*	*	*	*
!!LO:PB:g=original
=29:|!|:	=29:|!|:	=29:|!|:	=29:|!|:	=29:|!|:	=29:|!|:	=29:|!|:	=29:|!|:	=29:|!|:	=29:|!|:	=29:|!|:	=29:|!|:	=29:|!|:	=29:|!|:	=29:|!|:	=29:|!|:	=29:|!|:	=29:|!|:	=29:|!|:	=29:|!|:	=29:|!|:	=29:|!|:	=29:|!|:	=29:|!|:	=29:|!|:	=29:|!|:	=29:|!|:	=29:|!|:	=29:|!|:	=29:|!|:	=29:|!|:	=29:|!|:	=29:|!|:	=29:|!|:	=29:|!|:
*>D	*	*>D	*	*>D	*	*>D	*	*>D	*	*>D	*	*>D	*>D	*>D	*>D	*	*>D	*	*>D	*	*>D	*	*>D	*	*>D	*	*>D	*	*>D	*	*>D	*	*>D	*
*k[f#]	*	*k[f#]	*	*k[f#]	*	*k[f#]	*	*k[f#]	*	*k[]	*	*k[]	*k[f#]	*	*k[f#]	*	*k[f#]	*	*k[f#]	*	*k[f#]	*	*k[f#]	*	*k[f#]	*	*k[f#]	*	*k[f#]	*	*k[f#]	*	*k[f#]	*
*	*	*	*	*	*	*	*	*	*	*^	*	*	*	*	*	*	*	*	*	*	*	*	*	*	*	*	*	*	*	*	*	*	*	*
*tremolo	*	*	*	*	*	*	*	*	*	*	*	*	*	*tremolo	*	*	*	*	*	*	*	*tremolo	*	*	*	*	*	*	*	*	*	*	*	*	*
!	!	!	!	!	!	!	!	!	!	!	!	!	!	!	!	!	!	!	!	!	!	!LO:TX:t=P:problem:mixedbeam	!	!	!	!	!	!	!	!	!LO:DY:a	!	!	!	!
!	!LO:DY:rj	!	!	!	!	!	!	!	!	!	!	!	!	!	!LO:DY:rj	!	!	!	!LO:DY:rj	!	!	!	!LO:DY:rj	!	!LO:DY:rj	!	!	!	!LO:DY:rj	!	!LO:DY:rj	!	!	!	!LO:DY:rj
8G\L	ff	(16GG\LL	.	(16G\LL	.	8G/ 8d 8b	.	8dd\	.	8Ree/L	8Ra\	.	8Re/L	8GG\L 8G	ff	8B\L	.	8d\L	ff	8B/L 8d	.	16GG/LL	ff	8g\L 8dd	ff	4.r	.	8b\L 8dd	ff	8gg\L 8bb	ff	8dd\L	.	8ddd'\L	ff
.	.	16G\)	.	16g\)	.	.	.	.	.	.	.	.	.	.	.	.	.	.	.	.	.	16G\	.	.	.	.	.	.	.	.	.	.	.	.	.
8G\	.	16G'\	.	16g'\	.	8d/L 8b	.	8d\ 8b 8gg	.	8Ree/	8r	.	8Re/	8GG\ 8G	.	8B\	.	8g\	.	8B/ 8g	.	16GG/	.	8g\ 8dd	.	.	.	8b\ 8gg	.	8gg\ 8bb	.	8gg\	.	8ggg'\	.
.	.	16G'\	.	16g'\	.	.	.	.	.	.	.	.	.	.	.	.	.	.	.	.	.	16G\	.	.	.	.	.	.	.	.	.	.	.	.	.
*	*	*	*	*	*	*	*	*	*	*tremolo	*	*	*	*	*	*	*	*	*	*	*	*	*	*	*	*	*	*	*	*	*	*	*	*	*
8G\J	.	16G'\	.	16g'\	.	8e/J 8cc	.	8cc\ 8ee	.	32Ree/LL	8r	.	8ReT/J	8GG\J 8G	.	8c\J	.	8d\J	.	8c/J 8e	.	16GG/	.	8cc\J 8ee	.	.	.	8cc\J 8ee	.	8gg\J 8ccc	.	8ee\J	.	8eee'\J	.
.	.	.	.	.	.	.	.	.	.	32Ree/	.	.	.	.	.	.	.	.	.	.	.	.	.	.	.	.	.	.	.	.	.	.	.	.	.
.	.	16G'\JJ	.	16g'\JJ	.	.	.	.	.	32Ree/	.	.	.	.	.	.	.	.	.	.	.	16G\JJ	.	.	.	.	.	.	.	.	.	.	.	.	.
.	.	.	.	.	.	.	.	.	.	32Ree/JJJ	.	.	.	.	.	.	.	.	.	.	.	.	.	.	.	.	.	.	.	.	.	.	.	.	.
*	*	*	*	*	*	*	*	*	*	*Xtremolo	*	*	*	*Xtremolo	*	*	*	*	*	*	*	*	*	*	*	*	*	*	*	*	*	*	*	*	*
=30	=30	=30	=30	=30	=30	=30	=30	=30	=30	=30	=30	=30	=30	=30	=30	=30	=30	=30	=30	=30	=30	=30	=30	=30	=30	=30	=30	=30	=30	=30	=30	=30	=30	=30	=30
*rep	*	*rep	*	*rep	*	*	*	*	*	*rep	*rep	*	*rep	*	*	*	*	*	*	*	*	*rep	*	*rep	*	*	*	*	*	*	*	*	*	*	*
!	!	!	!	!	!	!	!	!	!	!	!	!	!	!	!	!	!	!	!	!	!	!LO:TX:t=P:problem:mixedbeam	!	!	!	!	!	!	!	!	!	!	!	!	!
8G\L	.	(16GG\LL	.	(16G\LL	.	16d/LL 16b	.	16dd\LL	.	8Ree/L	8Ra\	.	8Re/L	16GG\LL 16G	.	16B\LL	.	16d\LL	.	16B/LL 16d	.	16GG/LL	.	8g\L 8dd	.	4.r	.	16b\LL 16dd	.	16gg\LL 16bb	.	16dd\LL	.	16ddd'\LL	.
.	.	16G\)	.	16g\)	.	16d/JJ 16b	.	16dd\JJ	.	.	.	.	.	16GG\JJ 16G	.	16B\JJ	.	16d\JJ	.	16B/JJ 16d	.	16G\	.	.	.	.	.	16b\JJ 16dd	.	16gg\JJ 16bb	.	16dd\JJ	.	16ddd'\JJ	.
8G\	.	16G'\	.	16g'\	.	8d/L 8b	.	8d\ 8b 8gg	.	8Ree/	8r	.	8Re/	8GG\L 8G	.	8B\L	.	8g\L	.	8B/L 8g	.	16GG/	.	8g\ 8dd	.	.	.	8b\L 8gg	.	8gg\L 8bb	.	8gg\L	.	8ggg'\L	.
.	.	16G'\	.	16g'\	.	.	.	.	.	.	.	.	.	.	.	.	.	.	.	.	.	16G\	.	.	.	.	.	.	.	.	.	.	.	.	.
*	*	*	*	*	*	*	*	*	*	*tremolo	*	*	*	*	*	*	*	*	*	*	*	*	*	*	*	*	*	*	*	*	*	*	*	*	*
8G\J	.	16G'\	.	16g'\	.	8e/J 8cc	.	8cc\ 8ee	.	32Ree/LL	8r	.	8ReT/J	8GG\J 8G	.	8c\J	.	8e\J	.	8c/J 8e	.	16GG/	.	8cc\J 8ee	.	.	.	8cc\J 8ee	.	8gg\J 8ccc	.	8ee\J	.	8eee'\J	.
.	.	.	.	.	.	.	.	.	.	32Ree/	.	.	.	.	.	.	.	.	.	.	.	.	.	.	.	.	.	.	.	.	.	.	.	.	.
.	.	16G'\JJ	.	16g'\JJ	.	.	.	.	.	32Ree/	.	.	.	.	.	.	.	.	.	.	.	16G\JJ	.	.	.	.	.	.	.	.	.	.	.	.	.
.	.	.	.	.	.	.	.	.	.	32Ree/JJJ	.	.	.	.	.	.	.	.	.	.	.	.	.	.	.	.	.	.	.	.	.	.	.	.	.
*Xrep	*	*Xrep	*	*Xrep	*	*	*	*	*	*Xtremolo	*	*	*Xrep	*	*	*	*	*	*	*	*	*Xrep	*	*Xrep	*	*	*	*	*	*	*	*	*	*	*
*	*	*	*	*	*	*	*	*	*	*Xrep	*Xrep	*	*	*	*	*	*	*	*	*	*	*	*	*	*	*	*	*	*	*	*	*	*	*	*
=31	=31	=31	=31	=31	=31	=31	=31	=31	=31	=31	=31	=31	=31	=31	=31	=31	=31	=31	=31	=31	=31	=31	=31	=31	=31	=31	=31	=31	=31	=31	=31	=31	=31	=31	=31
*rep	*	*rep	*	*rep	*	*	*	*	*	*rep	*rep	*	*rep	*tremolo	*	*	*	*	*	*	*	*rep	*	*	*	*	*	*	*	*	*	*	*	*	*
!	!	!	!	!	!	!	!	!	!	!	!	!	!	!	!	!	!	!	!	!	!	!LO:TX:t=P:problem:mixedbeam	!	!	!	!	!	!	!	!	!	!	!	!	!
8G\L	.	(16GG\LL	.	(16G\LL	.	16.b/LL	.	16.dd\LL	.	8Ree/L	8Ra\	.	8Re/L	8GG\L 8G	.	16.B\LL	.	16.d\LL	.	16.b\LL 16.dd	.	16GG/LL	.	16g\ 16dd	.	4.r	.	16.b\LL 16.dd	.	16.bb\LL	.	16.dd\LL	.	16.ddd\LL	.
.	.	16G\)	.	16g\)	.	.	.	.	.	.	.	.	.	.	.	.	.	.	.	.	.	16G\	.	16r	.	.	.	.	.	.	.	.	.	.	.
.	.	.	.	.	.	32cc/JJk	.	32ee\JJk	.	.	.	.	.	.	.	32c\JJk	.	32e\JJk	.	32cc\JJk 32ee	.	.	.	.	.	.	.	32cc\JJk 32ee	.	32ccc\JJk	.	32ee\JJk	.	32eee\JJk	.
8G\	.	16G'\	.	16g'\	.	8b/L	.	8dd\L	.	8Ree/	8r	.	8Re/	8GG\ 8G	.	8B\L	.	8d\L	.	8b\L 8dd	.	16GG/	.	8g\L 8dd	.	.	.	8b\L 8dd	.	8bb\L	.	8dd\L	.	8ddd\L	.
.	.	16G'\	.	16g'\	.	.	.	.	.	.	.	.	.	.	.	.	.	.	.	.	.	16G\	.	.	.	.	.	.	.	.	.	.	.	.	.
*	*	*	*	*	*	*	*	*	*	*tremolo	*	*	*	*	*	*	*	*	*	*	*	*	*	*	*	*	*	*	*	*	*	*	*	*	*
8G\J	.	16G'\	.	16g'\	.	8g/J	.	8b\J	.	32Ree/LL	8r	.	8ReT/J	8GG\J 8G	.	8G\J	.	8B\J	.	8g\J 8b	.	16GG/	.	8g\J 8dd	.	.	.	8g\J 8b	.	8gg\J	.	8b\J	.	8bb\J	.
.	.	.	.	.	.	.	.	.	.	32Ree/	.	.	.	.	.	.	.	.	.	.	.	.	.	.	.	.	.	.	.	.	.	.	.	.	.
.	.	16G'\JJ	.	16g'\JJ	.	.	.	.	.	32Ree/	.	.	.	.	.	.	.	.	.	.	.	16G\JJ	.	.	.	.	.	.	.	.	.	.	.	.	.
.	.	.	.	.	.	.	.	.	.	32Ree/JJJ	.	.	.	.	.	.	.	.	.	.	.	.	.	.	.	.	.	.	.	.	.	.	.	.	.
*Xrep	*	*Xrep	*	*Xrep	*	*	*	*	*	*Xtremolo	*	*	*Xrep	*Xtremolo	*	*	*	*	*	*	*	*Xrep	*	*	*	*	*	*	*	*	*	*	*	*	*
*	*	*	*	*	*	*	*	*	*	*Xrep	*Xrep	*	*	*	*	*	*	*	*	*	*	*	*	*	*	*	*	*	*	*	*	*	*	*	*
=32	=32	=32	=32	=32	=32	=32	=32	=32	=32	=32	=32	=32	=32	=32	=32	=32	=32	=32	=32	=32	=32	=32	=32	=32	=32	=32	=32	=32	=32	=32	=32	=32	=32	=32	=32
*	*	*	*	*	*	*	*	*	*	*	*	*	*	*	*	*	*	*	*	*	*	*	*	*^	*	*	*	*	*	*	*	*	*	*	*
!	!	!LO:TX:t=P:problem:mixedbeam	!	!LO:TX:t=P:problem:mixedbeam	!	!	!	!	!	!	!	!	!	!	!	!	!	!	!	!	!	!	!	!	!	!	!	!	!	!	!	!	!	!	!	!
8D\L	.	(16DD/LL	.	(16D/LL	.	(16b/LL	.	(16dd\LL	.	16Ree/	16Ra\	.	16Rb\	16DD/ 16D	.	(16B\LL	.	(16d\LL	.	(16b\LL 16dd	.	16DD/LL	.	16dd/	16dd\	.	8r	.	(16b/LL 16dd	.	(16bb\LL	.	(16dd\LL	.	(16ddd\LL	.
.	.	16D\)	.	16d\)	.	32a/JJk)	.	32cc\JJk)	.	16r	16r	.	16r	16r	.	32A\JJk)	.	32c\JJk)	.	32a\JJk) 32cc	.	16D/	.	16r	16ryy	.	.	.	32a/JJk) 32cc	.	32aa\JJk)	.	32cc\JJk)	.	32ccc\JJk)	.
.	.	.	.	.	.	32r	.	32r	.	.	.	.	.	.	.	32r	.	32r	.	32r	.	.	.	.	.	.	.	.	32r	.	32r	.	32r	.	32r	.
8D\	.	16D'\	.	16d'\	.	4f#/	.	4a^/	.	4Ree/	4Ra\	.	4Rb\	4DD/ 4D	.	4F#/	.	4A/	.	4f#/ 4a	.	16DD/	.	4dd/	4dd\	.	4A^/ 4f#	.	4f#/ 4a	.	4ff#\	.	4a/	.	4aa\	.
.	.	16D'\	.	16d'\	.	.	.	.	.	.	.	.	.	.	.	.	.	.	.	.	.	16D/	.	.	.	.	.	.	.	.	.	.	.	.	.	.
8D\J	.	16D'\	.	16d'\	.	.	.	.	.	.	.	.	.	.	.	.	.	.	.	.	.	16DD/	.	.	.	.	.	.	.	.	.	.	.	.	.	.
.	.	16D'\JJ	.	16d'\JJ	.	.	.	.	.	.	.	.	.	.	.	.	.	.	.	.	.	16D/JJ	.	.	.	.	.	.	.	.	.	.	.	.	.	.
*	*	*	*	*	*	*	*	*	*	*	*	*	*	*	*	*	*	*	*	*	*	*	*	*v	*v	*	*	*	*	*	*	*	*	*	*	*
=33	=33	=33	=33	=33	=33	=33	=33	=33	=33	=33	=33	=33	=33	=33	=33	=33	=33	=33	=33	=33	=33	=33	=33	=33	=33	=33	=33	=33	=33	=33	=33	=33	=33	=33	=33
*	*	*	*	*	*	*	*	*	*	*	*	*	*	*tremolo	*	*	*	*	*	*	*	*	*	*	*	*	*	*	*	*	*	*	*	*	*
!	!	!LO:TX:t=P:problem:mixedbeam	!	!LO:TX:t=P:problem:mixedbeam	!	!	!	!	!	!	!	!	!	!	!	!	!	!	!	!	!	!LO:TX:t=P:problem:mixedbeam	!	!	!	!	!	!	!	!	!	!	!	!	!
8G\L	.	(16GG/LL	.	(16G/LL	.	8G/ 8d 8b	.	8dd\	.	8Ree/L	8Ra\	.	8Re/L	8GG\L 8G	.	8B\L	.	8d\L	.	8g/L	.	16GG/LL	.	8g\L 8dd	.	4.r	.	8b\L 8dd	.	8gg\L 8bb	.	8dd\L	.	8ddd\L	.
.	.	16G\JJ)	.	16g\JJ)	.	.	.	.	.	.	.	.	.	.	.	.	.	.	.	.	.	16G\	.	.	.	.	.	.	.	.	.	.	.	.	.
*	*	*tremolo	*	*tremolo	*	*	*	*	*	*	*	*	*	*	*	*	*	*	*	*	*	*	*	*	*	*	*	*	*	*	*	*	*	*	*
8G\	.	16G\LL	.	16g\LL	.	8d/L 8b	.	8d\ 8b 8gg	.	8Ree/	8r	.	8Re/	8GG\ 8G	.	8B\	.	8g\	.	8B/ 8g	.	16GG/	.	8g\ 8dd	.	.	.	8b\ 8gg	.	8gg\ 8bb	.	8gg\	.	8ggg\	.
.	.	16G\	.	16g\	.	.	.	.	.	.	.	.	.	.	.	.	.	.	.	.	.	16G\	.	.	.	.	.	.	.	.	.	.	.	.	.
*	*	*	*	*	*	*	*	*	*	*tremolo	*	*	*	*	*	*	*	*	*	*	*	*	*	*	*	*	*	*	*	*	*	*	*	*	*
8G\J	.	16G\	.	16g\	.	8e/J 8cc	.	8cc\ 8ee	.	32Ree/LL	8r	.	8ReT/J	8GG\J 8G	.	8c\J	.	8e\J	.	8c/J 8e	.	16GG/	.	8cc\J 8ee	.	.	.	8cc\J 8ee	.	8gg\J 8ccc	.	8ee\J	.	8eee\J	.
.	.	.	.	.	.	.	.	.	.	32Ree/	.	.	.	.	.	.	.	.	.	.	.	.	.	.	.	.	.	.	.	.	.	.	.	.	.
.	.	16G\JJ	.	16g\JJ	.	.	.	.	.	32Ree/	.	.	.	.	.	.	.	.	.	.	.	16G\JJ	.	.	.	.	.	.	.	.	.	.	.	.	.
.	.	.	.	.	.	.	.	.	.	32Ree/JJJ	.	.	.	.	.	.	.	.	.	.	.	.	.	.	.	.	.	.	.	.	.	.	.	.	.
*	*	*Xtremolo	*	*Xtremolo	*	*	*	*	*	*Xtremolo	*	*	*	*Xtremolo	*	*	*	*	*	*	*	*	*	*	*	*	*	*	*	*	*	*	*	*	*
=34	=34	=34	=34	=34	=34	=34	=34	=34	=34	=34	=34	=34	=34	=34	=34	=34	=34	=34	=34	=34	=34	=34	=34	=34	=34	=34	=34	=34	=34	=34	=34	=34	=34	=34	=34
*rep	*	*rep	*	*rep	*	*	*	*	*	*rep	*	*	*rep	*	*	*	*	*	*	*	*	*rep	*	*rep	*	*	*	*	*	*	*	*	*	*	*
!	!	!LO:TX:t=P:problem:mixedbeam	!	!LO:TX:t=P:problem:mixedbeam	!	!	!	!	!	!	!	!	!	!	!	!	!	!	!	!	!	!LO:TX:t=P:problem:mixedbeam	!	!	!	!	!	!	!	!	!	!	!	!	!
8G\L	.	(16GG/LL	.	(16G/LL	.	16d/LL 16b	.	16dd\LL	.	8Ree/L	8Ra\	.	8Re/L	16GG\LL 16G	.	16B\LL	.	16d\LL	.	16B/LL 16d	.	16GG/LL	.	8g\L 8dd	.	4.r	.	16b\LL 16dd	.	16gg\LL 16bb	.	16dd\LL	.	16ddd\LL	.
.	.	16G\JJ)	.	16g\JJ)	.	16d/JJ 16b	.	16dd\JJ	.	.	.	.	.	16GG\JJ 16G	.	16B\JJ	.	16d\JJ	.	16B/JJ 16d	.	16G\	.	.	.	.	.	16b\JJ 16dd	.	16gg\JJ 16bb	.	16dd\JJ	.	16ddd\JJ	.
*	*	*tremolo	*	*tremolo	*	*	*	*	*	*	*	*	*	*	*	*	*	*	*	*	*	*	*	*	*	*	*	*	*	*	*	*	*	*	*
8G\	.	16G\LL	.	16g\LL	.	8d/L 8b	.	8d\ 8b 8gg	.	8Ree/	8r	.	8Re/	8GG\L 8G	.	8B\L	.	8g\L	.	8B/L 8g	.	16GG/	.	8g\ 8dd	.	.	.	8b\L 8gg	.	8gg\L 8bb	.	8gg\L	.	8ggg\L	.
.	.	16G\	.	16g\	.	.	.	.	.	.	.	.	.	.	.	.	.	.	.	.	.	16G\	.	.	.	.	.	.	.	.	.	.	.	.	.
*	*	*	*	*	*	*	*	*	*	*tremolo	*	*	*	*	*	*	*	*	*	*	*	*	*	*	*	*	*	*	*	*	*	*	*	*	*
8G\J	.	16G\	.	16g\	.	8e/J 8cc	.	8cc\ 8ee	.	32Ree/LL	8r	.	8ReT/J	8GG\J 8G	.	8c\J	.	8e\J	.	8c/J 8e	.	16GG/	.	8cc\J 8ee	.	.	.	8cc\J 8ee	.	8gg\J 8ccc	.	8ee\J	.	8eee\J	.
.	.	.	.	.	.	.	.	.	.	32Ree/	.	.	.	.	.	.	.	.	.	.	.	.	.	.	.	.	.	.	.	.	.	.	.	.	.
.	.	16G\JJ	.	16g\JJ	.	.	.	.	.	32Ree/	.	.	.	.	.	.	.	.	.	.	.	16G\JJ	.	.	.	.	.	.	.	.	.	.	.	.	.
.	.	.	.	.	.	.	.	.	.	32Ree/JJJ	.	.	.	.	.	.	.	.	.	.	.	.	.	.	.	.	.	.	.	.	.	.	.	.	.
*Xrep	*	*Xtremolo	*	*Xtremolo	*	*	*	*	*	*Xtremolo	*	*	*Xrep	*	*	*	*	*	*	*	*	*Xrep	*	*	*	*	*	*	*	*	*	*	*	*	*
*Xtremolo	*	*Xrep	*	*Xrep	*	*	*	*	*	*Xrep	*	*	*	*	*	*	*	*	*	*	*	*Xtremolo	*	*Xrep	*	*	*	*	*	*	*	*	*	*	*
!!LO:PB:g=original
=35	=35	=35	=35	=35	=35	=35	=35	=35	=35	=35	=35	=35	=35	=35	=35	=35	=35	=35	=35	=35	=35	=35	=35	=35	=35	=35	=35	=35	=35	=35	=35	=35	=35	=35	=35
*	*	*	*	*	*	*	*	*	*	*	*	*	*	*	*	*	*	*	*	*	*	*	*	*^	*	*	*	*	*	*	*	*	*	*	*
16G\	.	16G\	.	16.g\LL	.	16.b/LL	.	16.dd/LL	.	8Ree/L	8Ra\	.	8Re/L	16GG\ 16G	.	16B\	.	16d\	.	16.b/LL 16.dd	.	16GG\ 16G	.	8g/L 8dd	4ryy	.	4.r	.	16.b/LL 16.dd	.	16.gg\LL 16.bb	.	16.dd/LL	.	16.ddd\LL	.
16r	.	16r	.	.	.	.	.	.	.	.	.	.	.	16r	.	16r	.	16r	.	.	.	16r	.	.	.	.	.	.	.	.	.	.	.	.	.	.
.	.	.	.	32B\JJk	.	32d/JJk	.	32g/JJk	.	.	.	.	.	.	.	.	.	.	.	32B/JJk 32g	.	.	.	.	.	.	.	.	32B/JJk 32g	.	32b\JJk 32dd	.	32g/JJk	.	32gg\JJk	.
8G\L	.	8G\L	.	8d\L	.	8g/L	.	8b/L	.	8Ree/	8r	.	8Re/	8GG\L 8G	.	8B\L	.	8d\L	.	8d/L 8b	.	8GG\L 8G	.	8g/J 8dd	.	.	.	.	8g/L 8b	.	8dd\L 8gg	.	8b/L	.	8bb\L	.
*	*	*	*	*	*	*	*	*	*	*tremolo	*	*	*	*	*	*	*	*	*	*	*	*	*	*	*	*	*	*	*	*	*	*	*	*	*	*
8D\J	.	8D\J	.	8c\J 8d	.	8f#Xt/J	.	8bt/J	.	32Ree/LL	8r	.	8RbT</J	8DD\J 8D	.	8A\J	.	8f#\J	.	8c/J 8a	.	8D\J 8A	.	8dd/	8cc\	.	.	.	8g/J 8b	.	8cc\J 8ff#	.	8aT/J	.	8aaT\J	.
.	.	.	.	.	.	.	.	.	.	32Ree/	.	.	.	.	.	.	.	.	.	.	.	.	.	.	.	.	.	.	.	.	.	.	.	.	.	.
.	.	.	.	.	.	.	.	.	.	32Ree/	.	.	.	.	.	.	.	.	.	.	.	.	.	.	.	.	.	.	.	.	.	.	.	.	.	.
.	.	.	.	.	.	.	.	.	.	32Ree/JJJ	.	.	.	.	.	.	.	.	.	.	.	.	.	.	.	.	.	.	.	.	.	.	.	.	.	.
*	*	*	*	*	*	*	*	*	*	*Xtremolo	*	*	*	*	*	*	*	*	*	*	*	*	*	*	*	*	*	*	*	*	*	*	*	*	*	*
=36	=36	=36	=36	=36	=36	=36	=36	=36	=36	=36	=36	=36	=36	=36	=36	=36	=36	=36	=36	=36	=36	=36	=36	=36	=36	=36	=36	=36	=36	=36	=36	=36	=36	=36	=36	=36
16G\	.	16G\	.	16B\ 16d	.	16g/	.	16g/	.	16Ree/	16Ra\	.	16Re/	16GG\ 16G	.	16B\	.	16g\	.	16B/ 16g	.	16G\ 16B	.	16dd/	16g\	.	8r	.	16g/	.	16b\ 16gg	.	16g/	.	16gg\	.
16r	.	16r	.	16r	.	16r	.	16r	.	16r	16r	.	16r	16r	.	16r	.	16r	.	16r	.	16r	.	16r	16ryy	.	.	.	16r	.	16r	.	16r	.	16r	.
8GG/	.	8GG/	.	8G\ 8d	.	8B/ 8g	.	8b\ 8gg	.	8Ree/	8Ra\	.	8Re/	8GG\ 8G	.	8B\	.	8g\	.	8B/ 8g	.	8G\ 8B	.	8g\ 8dd	4ryy	.	8D/ 8d	.	8b\ 8gg	.	8b\ 8gg	.	8gg\	.	8ggg\	.
!	!	!	!	!	!	!	!	!	!	!	!	!	!	!	!	!	!	!	!	!	!	!	!	!	!	!	!	!	!	!	!	!	!	!	!LO:TX:t=P:problem:fermata na dwukresce	!
8r	.	8r	.	8r	.	8r	.	8r	.	8r	8r	.	8r	8r	.	8r	.	8r	.	8r	.	8r	.	8r	.	.	8r	.	8r	.	8r	.	8r	.	8r;	.
*	*	*	*	*	*	*	*	*	*	*v	*v	*	*	*	*	*	*	*	*	*	*	*	*	*v	*v	*	*	*	*	*	*	*	*	*	*	*
!!LO:PB:g=original
=37:|!	=37:|!	=37:|!	=37:|!	=37:|!	=37:|!	=37:|!	=37:|!	=37:|!	=37:|!	=37:|!	=37:|!	=37:|!	=37:|!	=37:|!	=37:|!	=37:|!	=37:|!	=37:|!	=37:|!	=37:|!	=37:|!	=37:|!	=37:|!	=37:|!	=37:|!	=37:|!	=37:|!	=37:|!	=37:|!	=37:|!	=37:|!	=37:|!	=37:|!	=37:|!;>
*>E	*	*>E	*	*>E	*	*>E	*	*>E	*	*>E	*	*>E	*>E	*	*>E	*	*>E	*	*>E	*	*>E	*	*>E	*	*>E	*	*>E	*	*>E	*	*>E	*	*>E	*
*k[]	*	*k[]	*	*k[]	*	*k[]	*	*k[]	*	*k[]	*	*k[]	*k[]	*	*k[]	*	*k[]	*	*k[]	*	*k[]	*	*k[]	*	*k[]	*	*k[]	*	*k[]	*	*k[]	*	*k[]	*
*M3/8	*	*M3/8	*	*M3/8	*	*M3/8	*	*M3/8	*	*M3/8	*	*M3/8	*M3/8	*	*M3/8	*	*M3/8	*	*M3/8	*	*M3/8	*	*M3/8	*	*M3/8	*	*M3/8	*	*M3/8	*	*M3/8	*	*M3/8	*
!!LO:TX:a:t=C.
!	!LO:DY:rj	!	!LO:DY:rj	!	!	!	!LO:DY:rj	!	!	!	!	!	!	!LO:DY:rj	!	!	!	!LO:DY:rj	!	!LO:DY:rj	!	!	!	!LO:DY:rj	!	!	!	!	!	!	!	!	!LO:TX:a:t=Trio	!
16.C|/LL	f	16.C|/LLyy	fy	16.c\LL	.	16.c/LL	f	4.r	.	4.r	.	4.r	16.C/LL	f	16.c\LL	.	16.c\LL	f	16.c/LL	f	16.C|/LL	.	16.cc\LL	f	4.r	.	4.r	.	4.r	.	4.r	.	4.r	.
32BB|/JJk	.	32BB|/JJkyy	.	32B\JJk	.	32B/JJk	.	.	.	.	.	.	32BB/JJk	.	32B\JJk	.	32B\JJk	.	32B/JJk	.	32BB|/JJk	.	32b\JJk	.	.	.	.	.	.	.	.	.	.	.
8C|/L	.	8C|/Lyy	.	8c\L	.	8c/L	.	.	.	.	.	.	8C/L	.	8c\L	.	8c\L	.	8c/L	.	8C|/L	.	8cc\L	.	.	.	.	.	.	.	.	.	.	.
8E|/J	.	8E|/Jyy	.	8e\J	.	8e/J	.	.	.	.	.	.	8E/J	.	8e\J	.	8e\J	.	8e/J	.	8E|/J	.	8ee\J	.	.	.	.	.	.	.	.	.	.	.
=38	=38	=38	=38	=38	=38	=38	=38	=38	=38	=38	=38	=38	=38	=38	=38	=38	=38	=38	=38	=38	=38	=38	=38	=38	=38	=38	=38	=38	=38	=38	=38	=38	=38	=38
(8qA/	.	(8qA/yy	.	(8qa/	.	8qa/	.	.	.	.	.	.	8qA/	.	(8qa/	.	(8qa/	.	8qa/	.	(8qA/	.	.	.	.	.	.	.	.	.	.	.	.	.
16.G\LL)	.	16.G\LL)yy	.	16.g\LL)	.	16.g/LL	.	4.r	.	4.r	.	4.r	16.G\LL	.	16.g\LL)	.	16.g\LL)	.	16.g/LL	.	16.G\LL)	.	16.gg\LL	.	4.r	.	4.r	.	4.r	.	4.r	.	4.r	.
32F#X|\JJk	.	32F#X|\JJkyy	.	32f#|\JJk	.	32f#X/JJk	.	.	.	.	.	.	32F#X\JJk	.	32f#X\JJk	.	32f#X\JJk	.	32f#/JJk	.	32F#X|\JJk	.	32ff#X\JJk	.	.	.	.	.	.	.	.	.	.	.
4G|\	.	4G|\yy	.	4g|\	.	4g|/	.	.	.	.	.	.	4G\	.	4g\	.	4g\	.	4g/	.	4G|\	.	4gg\	.	.	.	.	.	.	.	.	.	.	.
=39	=39	=39	=39	=39	=39	=39	=39	=39	=39	=39	=39	=39	=39	=39	=39	=39	=39	=39	=39	=39	=39	=39	=39	=39	=39	=39	=39	=39	=39	=39	=39	=39	=39	=39
*	*	*	*	*	*	*	*	*	*	*^	*	*	*	*	*	*	*	*	*^	*	*	*	*	*	*	*	*^	*	*^	*	*	*	*	*
*tremolo	*	*tremolo	*	*tremolo	*	*tremolo	*	*	*	*tremolo	*	*	*	*	*	*	*	*	*	*	*	*	*	*	*	*	*	*	*	*	*	*	*	*	*	*	*	*
!	!LO:DY:rj	!	!LO:DY:rj	!	!LO:DY:rj	!	!LO:DY:rj	!	!LO:DY:rj	!	!	!LO:DY:a	!	!	!	!	!	!	!	!	!	!LO:DY:rj	!	!LO:DY:rj	!	!	!	!	!	!LO:SIC:v:s=16f#\	!	!LO:SIC:v:s=16.ff#/LL	!	!	!LO:TX:a:t=Col Fl.	!	!	!
8D\L	p	8D\Lyy	py	8A\L 8d	p	8f#X/L	p	16.dd|\LL	p	8Ree/L	4.r	p	4.r	4.r	.	4.r	.	4.r	.	16.dd/LL	16f#X\	p	16D\ 16F#X	p	4.r	.	16A/ 16d	.	16.dd/LL	16f\	.	16.ff/LL	4.r	.	16.ddd\LLyy	.	16.ddd\LL	.
.	.	.	.	.	.	.	.	.	.	.	.	.	.	.	.	.	.	.	.	.	16r	.	16r	.	.	.	16r	.	.	16r	.	.	.	.	.	.	.	.
!	!	!	!	!	!	!	!	!	!	!	!	!	!	!	!	!	!	!	!	!	!	!	!	!	!	!	!	!	!	!	!	!LO:SIC:v:s=32ff#/JJk	!	!	!	!	!	!
.	.	.	.	.	.	.	.	32ee|\JJk	.	.	.	.	.	.	.	.	.	.	.	32ee/JJk	.	.	.	.	.	.	.	.	32ee/JJk	.	.	32ff/JJk	.	.	32eee\JJkyy	.	32eee\JJk	.
!	!	!	!	!	!	!	!	!	!	!	!	!	!	!	!	!	!	!	!	!	!	!	!	!	!	!	!	!	!	!LO:SIC:v:s=8f#\L	!	!LO:SIC:v:s=ff#/L	!	!	!	!	!	!
8D\	.	8D\yy	.	8A\ 8d	.	8f#/	.	8dd|\L	.	8Ree/	.	.	.	.	.	.	.	.	.	8dd/L	8f#\L	.	8D\L 8F#	.	.	.	8A/L 8e	.	8dd/L	8f\L	.	8ff/L	.	.	8ddd\Lyy	.	8ddd\L	.
8D\J	.	8D\Jyy	.	8A\J 8d	.	8f#/J	.	8cc|\J	.	8Ree/J	.	.	.	.	.	.	.	.	.	8cc/J	8f#\J	.	8D\J 8F#	.	.	.	8A/J 8d	.	8cc/J	8a\J	.	8aa/J	.	.	8cc\Jyy	.	8ccc\J	.
*Xtremolo	*	*Xtremolo	*	*Xtremolo	*	*Xtremolo	*	*	*	*Xtremolo	*	*	*	*	*	*	*	*	*	*	*	*	*	*	*	*	*	*	*	*	*	*	*	*	*	*	*	*
*	*	*	*	*	*	*	*	*	*	*	*	*	*	*	*	*	*	*	*	*	*	*	*	*	*	*	*	*	*v	*v	*	*	*	*	*	*	*	*
=40	=40	=40	=40	=40	=40	=40	=40	=40	=40	=40	=40	=40	=40	=40	=40	=40	=40	=40	=40	=40	=40	=40	=40	=40	=40	=40	=40	=40	=40	=40	=40	=40	=40	=40	=40	=40	=40
*	*	*	*	*	*	*	*	*	*	*	*	*	*	*	*	*	*	*	*	*	*	*	*^	*	*	*	*	*	*	*	*	*	*	*	*	*	*
16GG/	.	16GG/yy	.	16G\ 16d	.	16.g/LL	.	16.b|\LL	.	16Ree/	4.r	.	4.r	4.r	.	4.r	.	4.r	.	16.b/LL	16.g\LL	.	16G\	8rBByy	.	4.r	.	16G/ 16d	.	16.g/LL 16.b	.	16.gg/LL	4.r	.	16.b\LLyy	.	16.bb\LL	.
16r	.	16ryy	.	16r	.	.	.	.	.	16r	.	.	.	.	.	.	.	.	.	.	.	.	16r	.	.	.	.	16r	.	.	.	.	.	.	.	.	.	.
.	.	.	.	.	.	32cc/JJk	.	32ee|\JJk	.	.	.	.	.	.	.	.	.	.	.	32ee/JJk	32cc\JJk	.	.	.	.	.	.	.	.	32cc/JJk 32ee	.	32ccc/JJk	.	.	32ee\JJkyy	.	32eee\JJk	.
4G\	.	4G\yy	.	4G\ 4d	.	4b/	.	4dd|\	.	4Ree/	.	.	.	.	.	.	.	.	.	4dd/	4b\	.	4B/	4G\	.	.	.	4G/ 4d	.	4b/ 4dd	.	4bb/	.	.	4dd\yy	.	4ddd\	.
*	*	*	*	*	*	*	*	*	*	*	*	*	*	*	*	*	*	*	*	*	*	*	*v	*v	*	*	*	*	*	*	*	*	*	*	*	*	*	*
*	*	*	*	*	*	*	*	*	*	*v	*v	*	*	*	*	*	*	*	*	*v	*v	*	*	*	*	*	*	*	*	*	*v	*v	*	*	*	*	*
=41	=41	=41	=41	=41	=41	=41	=41	=41	=41	=41	=41	=41	=41	=41	=41	=41	=41	=41	=41	=41	=41	=41	=41	=41	=41	=41	=41	=41	=41	=41	=41	=41	=41	=41
!	!LO:DY:rj	!	!LO:DY:rj	!	!LO:DY:rj	!	!LO:DY:rj	!	!	!	!	!	!	!LO:DY:rj	!	!LO:DY:rj	!	!LO:DY:rj	!	!LO:DY:rj	!	!	!	!LO:DY:rj	!	!	!	!	!	!	!	!	!	!
16.C|^/LL	f	16.C|^/LLyy	fy	16.c|\LL	f	16.c/LL	f	4.r	.	4.r	.	4.r	16.C|/LL	f	16.c|\LL	f	16.c\LL	f	16.c|>/LL	f	16.C/LL	.	16.cc\LL	f	4.r	.	4.r	.	4.r	.	4.r	.	4.r	.
32BB|/JJk	.	32BB|/JJkyy	.	32B|\JJk	.	32B/JJk	.	.	.	.	.	.	32BB|/JJk	.	32B|\JJk	.	32B\JJk	.	32B|>/JJk	.	32BB/JJk	.	32b\JJk	.	.	.	.	.	.	.	.	.	.	.
8C|/L	.	8C|/Lyy	.	8c|\L	.	8c/L	.	.	.	.	.	.	8C|/L	.	8c|\L	.	8c\L	.	8c|>/L	.	8C\L	.	8cc\L	.	.	.	.	.	.	.	.	.	.	.
8E|/J	.	8E|/Jyy	.	8e|\J	.	8e/J	.	.	.	.	.	.	8E|/J	.	8e|\J	.	8e\J	.	8e|>/J	.	8E\J	.	8ee\J	.	.	.	.	.	.	.	.	.	.	.
!!LO:PB:g=original
=42	=42	=42	=42	=42	=42	=42	=42	=42	=42	=42	=42	=42	=42	=42	=42	=42	=42	=42	=42	=42	=42	=42	=42	=42	=42	=42	=42	=42	=42	=42	=42	=42	=42	=42
!	!	!	!	!	!	!	!	!	!	!	!	!	!	!	!	!	!	!	!	!	!	!	!	!	!	!	!	!	!	!	!	!	!LO:TX:a:t=D.	!
16.A\LL	.	16.A\LLyy	.	16.a|\LL	.	16.a/LL	.	4.r	.	4.r	.	4.r	16.A\LL	.	16.a\LL	.	16.a\LL	.	16.a/LL	.	16.A\LL	.	16.aa\LL	.	4.r	.	4.r	.	4.r	.	4.r	.	4.r	.
32F#X\JJk	.	32F#X\JJkyy	.	32f#X|\JJk	.	32f#X/JJk	.	.	.	.	.	.	32F#X\JJk	.	32f#X\JJk	.	32f#X\JJk	.	32f#X/JJk	.	32F#X\JJk	.	32ff#X\JJk	.	.	.	.	.	.	.	.	.	.	.
4G\	.	4G\yy	.	4g\	.	4g/	.	.	.	.	.	.	4G\	.	4g\	.	4g\	.	4g/	.	4G\	.	4gg\	.	.	.	.	.	.	.	.	.	.	.
=43	=43	=43	=43	=43	=43	=43	=43	=43	=43	=43	=43	=43	=43	=43	=43	=43	=43	=43	=43	=43	=43	=43	=43	=43	=43	=43	=43	=43	=43	=43	=43	=43	=43	=43
*	*	*	*	*	*	*	*	*	*	*^	*	*	*	*	*	*	*	*	*	*	*	*	*	*	*	*	*^	*	*^	*	*	*	*	*
*	*	*	*	*	*	*	*	*	*	*tremolo	*	*	*	*	*	*	*	*	*	*	*	*	*	*	*	*	*	*	*	*	*	*	*	*	*	*	*
!LO:TX:t=P:problem:mixedbeam	!	!LO:TX:t=P:problem:mixedbeam	!	!	!	!	!	!	!	!	!	!	!	!	!	!	!	!	!	!	!	!	!	!	!	!	!	!	!	!	!	!	!	!	!	!	!
!	!LO:DY:rj	!	!LO:DY:rj	!	!LO:DY:a:rj	!	!LO:DY:rj	!	!LO:DY:rj	!	!	!	!	!	!	!	!	!	!	!	!	!	!	!	!	!	!LO:DY:rj	!	!	!	!	!	!	!	!	!	!
8BB/L	p	8BB/Lyy	py	8e\L	p	8B/L 8g	p	16.bb|\LL	p	8Ree/L	4.r	.	4.r	4.r	.	4.r	.	4.r	.	4.r	.	(8B'\L	p	4.r	.	8e\L 8g	p	16.b/LL	4.re	.	16.bb\LL	4.re	.	16.bb|\LL	.	4.r	.
.	.	.	.	.	.	.	.	32ee|\JJk	.	.	.	.	.	.	.	.	.	.	.	.	.	.	.	.	.	.	.	32e/JJk	.	.	32ee\JJk	.	.	32ee|\JJk	.	.	.
8BB/	.	8BB/yy	.	8e\	.	8B/ 8g	.	8gg|\	.	8Ree/	.	.	.	.	.	.	.	.	.	.	.	8B'\	.	.	.	8e\ 8g	.	8g/	.	.	8gg\	.	.	8gg|\	.	.	.
.	.	.	.	.	.	.	.	(8qgg/	.	.	.	.	.	.	.	.	.	.	.	.	.	.	.	.	.	.	.	(8qg/	.	.	(8qgg/	.	.	(8qgg/	.	.	.
!	!	!	!	!	!	!	!	!LO:SIC:v:s=16.ff#\LL)	!	!	!	!	!	!	!	!	!	!	!	!	!	!	!	!	!	!	!	!	!	!	!	!	!	!	!	!	!
8B\J	.	8B\Jyy	.	8d#X\J	.	8B/J 8a	.	16.ff\LL)	.	8Ree/J	.	.	.	.	.	.	.	.	.	.	.	8B'\J)	.	.	.	8d#X\J 8a	.	16.f#X/LL)	.	.	16.ff#X\LL)	.	.	16.ff#X\LL)	.	.	.
.	.	.	.	.	.	.	.	32|b\JJk	.	.	.	.	.	.	.	.	.	.	.	.	.	.	.	.	.	.	.	32B/JJk	.	.	32b\JJk	.	.	32b|\JJk	.	.	.
*	*	*	*	*	*	*	*	*	*	*Xtremolo	*	*	*	*	*	*	*	*	*	*	*	*	*	*	*	*	*	*	*	*	*	*	*	*	*	*	*
=44	=44	=44	=44	=44	=44	=44	=44	=44	=44	=44	=44	=44	=44	=44	=44	=44	=44	=44	=44	=44	=44	=44	=44	=44	=44	=44	=44	=44	=44	=44	=44	=44	=44	=44	=44	=44	=44
16E\	.	16E\yy	.	16e\	.	16B/ 16g	.	16ee\	.	16Ree/	4.r	.	4.r	4.r	.	4.r	.	4.r	.	4.r	.	16E\ 16B	.	4.r	.	16e\ 16g	.	16e/	4.re	.	16ee\	4.re	.	16ee\	.	4.r	.
16r	.	16ryy	.	16r	.	16r	.	16r	.	16r	.	.	.	.	.	.	.	.	.	.	.	16r	.	.	.	16r	.	16rc	.	.	16rc	.	.	16rc	.	.	.
8E^<\	.	8E^<\yy	.	8e^<\	.	8B/ 8g	.	8ee^<\ 8eee	.	4Ree/	.	.	.	.	.	.	.	.	.	.	.	8E\ 8B	.	.	.	8e^<\ 8g	.	8e/	.	.	8ee^\	.	.	8eee\	.	.	.
8r	.	8ryy	.	8r	.	8r	.	8r	.	.	.	.	.	.	.	.	.	.	.	.	.	8r	.	.	.	8r	.	8rc	.	.	8rc	.	.	8rc	.	.	.
*	*	*	*	*	*	*	*	*	*	*	*	*	*	*	*	*	*	*	*	*	*	*	*	*	*	*	*	*	*	*	*v	*v	*	*	*	*	*
=45:|!|:	=45:|!|:	=45:|!|:	=45:|!|:	=45:|!|:	=45:|!|:	=45:|!|:	=45:|!|:	=45:|!|:	=45:|!|:	=45:|!|:	=45:|!|:	=45:|!|:	=45:|!|:	=45:|!|:	=45:|!|:	=45:|!|:	=45:|!|:	=45:|!|:	=45:|!|:	=45:|!|:	=45:|!|:	=45:|!|:	=45:|!|:	=45:|!|:	=45:|!|:	=45:|!|:	=45:|!|:	=45:|!|:	=45:|!|:	=45:|!|:	=45:|!|:	=45:|!|:	=45:|!|:	=45:|!|:	=45:|!|:	=45:|!|:
*>F	*	*>F	*	*>F	*	*>F	*	*>F	*	*>F	*>F	*	*>F	*>F	*	*>F	*	*>F	*	*>F	*	*>F	*>F	*	*>F	*	*>F	*	*>F	*>F	*	*>F	*	*>F	*>F	*
*	*	*	*	*	*	*	*	*	*	*	*	*	*	*	*	*	*	*	*	*	*	*^	*	*	*	*	*	*	*	*	*	*	*	*	*	*
!	!	!	!	!	!	!	!	!	!	!	!	!	!	!	!	!	!	!	!	!LO:TX:b:t=due	!	!	!	!	!	!	!	!	!	!	!	!	!	!	!	!	!
!	!	!	!	!	!	!	!	!	!	!	!	!	!	!	!	!	!	!L	!	!LO:TX:t=P:problem:Tromba w t. 45-46 zapisana na partii 3. Tromboni	!	!	!	!	!	!	!	!	!	!	!	!	!	!	!	!	!LO:DY:rj
!	!LO:DY:rj	!	!LO:DY:rj	!	!LO:DY:rj	!	!	!	!LO:DY:rj	!	!	!	!	!	!	!	!LO:DY:a:rj	!	!	!	!LO:DY:rj	!	!	!	!	!LO:DY:rj	!	!LO:DY:rj	!	!	!	!	!LO:DY:rj	!	!	!	!
16.D#X/LL	ff	16.D#X/LLyy	ffy	16.B\LL 16.f	ff	16.b\LL 16.ff	.	16.b\LL 16.bb	ff	8Ree/L	8Ra\	.	4.ryy	16.D#X/LL	.	16.B\LL	ff	16.f\LL	.	16.b/LL	ff	16.D#X/LL	16.D#\LL	.	16.b\LL	ff	16.d#X\LL 16.f	ff	16.b/LL	16.b\LL	.	16.ff\LL 16.bb	ff	16.bb\LL	.	16.fff\LL	ff
32D#/JJk	.	32D#/JJkyy	.	32B\JJk 32f	.	32b\JJk 32ff	.	32b\JJk 32bb	.	.	.	.	.	32D#/JJk	.	32B\JJk	.	32f\JJk	.	32b/JJk	.	32D#/JJk	32D#\JJk	.	32b\JJk	.	32d#\JJk 32f	.	32b/JJk	32b\JJk	.	32ff\JJk 32bb	.	32bb\JJk	.	32fff\JJk	.
*	*	*	*	*	*	*	*	*	*	*tremolo	*	*	*	*	*	*	*	*	*	*	*	*	*	*	*	*	*	*	*	*	*	*	*	*	*	*	*
8BB/L	.	8BB/Lyy	.	8B\L 8f	.	8b\L 8ff	.	8b\L 8bb	.	32Ree/LL	8r	.	.	8BB/L	.	8B\L	.	8f\L	.	8b/L	.	8BB/L	8BB\L	.	8b\L	.	8d#\L 8f	.	8b/L	8b\L	.	8ff\L 8bb	.	8bb\L	.	8fff\L	.
.	.	.	.	.	.	.	.	.	.	32Ree/	.	.	.	.	.	.	.	.	.	.	.	.	.	.	.	.	.	.	.	.	.	.	.	.	.	.	.
.	.	.	.	.	.	.	.	.	.	32Ree/	.	.	.	.	.	.	.	.	.	.	.	.	.	.	.	.	.	.	.	.	.	.	.	.	.	.	.
.	.	.	.	.	.	.	.	.	.	32Ree/JJJ	.	.	.	.	.	.	.	.	.	.	.	.	.	.	.	.	.	.	.	.	.	.	.	.	.	.	.
*	*	*	*	*	*	*	*	*	*	*Xtremolo	*	*	*	*	*	*	*	*	*	*	*	*	*	*	*	*	*	*	*	*	*	*	*	*	*	*	*
8D#/J	.	8D#/Jyy	.	8B\J 8f	.	8b\J 8ff	.	8a\J 8aa	.	8Ree/	8Ra\	.	.	8D#/J	.	8B\J	.	8f\J	.	8a/J	.	8D#/J	8D#\J	.	8b\J	.	8d#\J 8f	.	8b/J	8a\J	.	8ff\J 8aa	.	8aa\J	.	8fff\J	.
*	*	*	*	*	*	*	*	*	*	*	*	*	*	*	*	*	*	*	*	*	*	*v	*v	*	*	*	*	*	*v	*v	*	*	*	*	*	*	*
=46	=46	=46	=46	=46	=46	=46	=46	=46	=46	=46	=46	=46	=46	=46	=46	=46	=46	=46	=46	=46	=46	=46	=46	=46	=46	=46	=46	=46	=46	=46	=46	=46	=46	=46	=46
*	*	*	*	*	*	*	*	*	*	*	*tremolo	*	*	*	*	*tremolo	*	*	*	*	*	*	*	*tremolo	*	*	*	*	*	*	*	*	*	*	*
8E^<\L	.	8E^<\Lyy	.	8B\L 8g	.	8b\L 8ee	.	8b^<\L 8gg	.	8Ree/L	8Ra\L	.	4.ryy	8E\L	.	8B\L	.	8e\L	.	8g/L	.	8E\L	.	8b\L	.	8e\L 8g	.	8g/L 8b	.	8ee\L 8gg	.	8gg'^<\L	.	8eee'^<\L	.
*	*	*	*	*	*	*	*	*	*	*tremolo	*	*	*	*	*	*	*	*	*	*	*	*	*	*	*	*	*	*	*	*	*	*	*	*	*
!LO:SIC:v:s=8FF#^<\	!	!LO:SIC:v:s=8F#^<\yy	!	!LO:SIC:v:n=1:s=8f#	!	!	!	!LO:SIC:v:n=1:s=8ff#	!	!	!	!	!	!LO:SIC:v:s=8F#\	!	!	!	!	!	!LO:SIC:v:s=8f#/	!	!LO:SIC:v:s=8F#\	!	!	!	!LO:SIC:v:n=1:s=8f#	!	!	!	!LO:SIC:v:n=1:s=8ff#	!	!	!	!	!
8F^<\	.	8F^<\yy	.	8B\ 8f	.	8dd#X\	.	8b^<\ 8ff	.	32Ree/LL	8Ra\	.	.	8F\	.	8B\	.	8d#X\	.	8f/	.	8F\	.	8b\	.	8d#X\ 8f	.	8f#X/ 8b	.	8dd#X\ 8ff	.	8ff#X'^<\	.	8ddd#X'^<\	.
.	.	.	.	.	.	.	.	.	.	32Ree/	.	.	.	.	.	.	.	.	.	.	.	.	.	.	.	.	.	.	.	.	.	.	.	.	.
.	.	.	.	.	.	.	.	.	.	32Ree/	.	.	.	.	.	.	.	.	.	.	.	.	.	.	.	.	.	.	.	.	.	.	.	.	.
.	.	.	.	.	.	.	.	.	.	32Ree/JJ	.	.	.	.	.	.	.	.	.	.	.	.	.	.	.	.	.	.	.	.	.	.	.	.	.
*	*	*	*	*	*	*	*	*	*	*Xtremolo	*	*	*	*	*	*	*	*	*	*	*	*	*	*	*	*	*	*	*	*	*	*	*	*	*
8G^<\J	.	8G^<\Jyy	.	8B\J 8g	.	8ee\J	.	8b^<\J 8ee	.	8Ree/J	8Ra\J	.	.	8G\J	.	8B\J	.	8e\J	.	8e/J	.	8G\J	.	8b\J	.	8e\J 8g	.	8e/J 8b	.	8ee\J	.	8ee'^<\J	.	8eee'^<\J	.
*	*	*	*	*	*	*	*	*	*	*	*Xtremolo	*	*	*	*	*Xtremolo	*	*	*	*	*	*	*	*Xtremolo	*	*	*	*	*	*	*	*	*	*	*
!!LO:PB:g=original
=47	=47	=47	=47	=47	=47	=47	=47	=47	=47	=47	=47	=47	=47	=47	=47	=47	=47	=47	=47	=47	=47	=47	=47	=47	=47	=47	=47	=47	=47	=47	=47	=47	=47	=47	=47
*	*	*	*	*	*	*	*	*	*	*	*	*	*	*	*	*	*	*	*	*	*	*	*	*^	*	*	*	*	*	*	*	*	*	*	*
*	*	*	*	*tremolo	*	*tremolo	*	*	*	*	*	*	*	*	*	*tremolo	*	*tremolo	*	*	*	*	*	*tremolo	*tremolo	*	*tremolo	*	*	*	*tremolo	*	*	*	*	*
!	!	!	!	!	!	!	!	!	!	!	!	!	!	!	!	!	!	!	!	!LO:TX:a:t=Tromba	!	!	!	!	!	!	!	!	!	!	!	!	!	!	!	!
!LO:TX:t=P:problem:mixedbeam	!	!LO:TX:t=P:problem:mixedbeam	!	!	!	!	!	!	!	!	!	!	!	!	!	!	!	!	!	!	!	!	!	!	!	!	!LO:SIC:v:n=1:s=8f#	!	!	!	!LO:SIC:v:n=1:s=8f#	!	!	!	!	!
8BB/L	.	8BB/Lyy	.	8F#X/L 8B	.	8B/L 8f#X	.	16.dd#X\LL	.	8Ree/	8Ra\	.	4.ryy	8BB/	.	8B\L	.	8f#X\L	.	16.d#X|/LL	.	8BB\L 8B	.	8b/L	8b\L	.	8d#X\L 8f	.	16.dd#X\LL	.	8b\L 8ff	.	16.dd#X\LL	.	16.ddd#X|\LL	.
.	.	.	.	.	.	.	.	32b\K	.	.	.	.	.	.	.	.	.	.	.	32B|/JJK	.	.	.	.	.	.	.	.	32b\JJk	.	.	.	32b\JJk	.	32bb|\JJk	.
!	!	!	!	!	!	!	!	!	!	!	!	!	!	!	!	!	!	!	!	!	!	!	!	!	!	!	!LO:SIC:v:n=1:s=8f#	!	!	!	!LO:SIC:v:n=1:s=8f#	!	!	!	!	!
8B\	.	8B\yy	.	8F#/ 8B	.	8B/ 8f#	.	16a#X\	.	8r	4ryy	.	.	8BB\L 8B	.	8B\	.	8f#\	.	16A#X'/LL	.	8BB\ 8B	.	8b/	8b\	.	8d#\ 8f	.	16a#X\LL	.	8b\ 8ff	.	16a#X\LL	.	16aa#X|\LL	.
.	.	.	.	.	.	.	.	16b\	.	.	.	.	.	.	.	.	.	.	.	16B'/	.	.	.	.	.	.	.	.	16b\	.	.	.	16b\	.	16bb|\	.
!	!	!	!	!	!	!	!	!	!	!	!	!	!	!	!	!	!	!	!	!	!	!	!	!	!	!	!LO:SIC:v:n=1:s=8f#	!	!	!	!LO:SIC:v:n=1:s=8f#	!	!	!	!	!
8A\J	.	8A\Jyy	.	8F#/J 8B	.	8B/J 8f#	.	16cc#X\	.	8r	.	.	.	8AA\J 8A	.	8B\J	.	8f#\J	.	16c#X'/	.	8AA\J 8A	.	8b/J	8b\J	.	8d#\J 8f	.	16cc#X\	.	8b\J 8ff	.	16cc#X\	.	16ccc#X|\	.
.	.	.	.	.	.	.	.	16dd#X\JJ	.	.	.	.	.	.	.	.	.	.	.	16d#'/JJ	.	.	.	.	.	.	.	.	16dd#\JJ	.	.	.	16dd#\JJ	.	16ddd#|\JJ	.
*	*	*	*	*Xtremolo	*	*Xtremolo	*	*	*	*	*	*	*	*	*	*Xtremolo	*	*Xtremolo	*	*	*	*	*	*Xtremolo	*Xtremolo	*	*Xtremolo	*	*	*	*Xtremolo	*	*	*	*	*
*	*	*	*	*	*	*	*	*	*	*v	*v	*	*	*	*	*	*	*	*	*	*	*	*	*	*	*	*	*	*	*	*	*	*	*	*	*
=48	=48	=48	=48	=48	=48	=48	=48	=48	=48	=48	=48	=48	=48	=48	=48	=48	=48	=48	=48	=48	=48	=48	=48	=48	=48	=48	=48	=48	=48	=48	=48	=48	=48	=48	=48
16.G\LL	.	16.G\LLyy	.	16.E/LL 16.B	.	16.e/LL	.	16.ee\LL	.	4.r	.	4.ryy	16.GG/LL 16.G	.	16B\	.	16e\	.	16.e/LL	.	16.GG/LL 16.G	.	16b/	16b\	.	16e\ 16g	.	16.ee\LL	.	16b\ 16gg	.	16.ee\LL	.	16.eee\LL	.
.	.	.	.	.	.	.	.	.	.	.	.	.	.	.	16r	.	16r	.	.	.	.	.	16r	16ryy	.	16r	.	.	.	16r	.	.	.	.	.
32F#X\JJk	.	32F#X\JJkyy	.	32F#X/JJk 32B	.	32d#X/JJk	.	32ff#X\JJk	.	.	.	.	32FF#X/JJk 32F#X	.	.	.	.	.	32f#X/JJk	.	32FF#X/JJk 32F#X	.	.	.	.	.	.	32ff#X\JJk	.	.	.	32ff#X\JJk	.	32fff#X\JJk	.
4E\	.	4E\yy	.	4E/ 4B	.	4e/	.	4gg\	.	.	.	.	4EE/ 4E	.	4B\	.	4g\	.	4g/	.	4EE/ 4E	.	4b/	4b\	.	4e\ 4g	.	4gg\	.	4b\ 4gg	.	4gg\	.	4ggg\	.
*	*	*	*	*	*	*	*	*	*	*	*	*	*	*	*	*	*	*	*	*	*	*	*v	*v	*	*	*	*	*	*	*	*	*	*	*
!!LO:PB:g=original
=49	=49	=49	=49	=49	=49	=49	=49	=49	=49	=49	=49	=49	=49	=49	=49	=49	=49	=49	=49	=49	=49	=49	=49	=49	=49	=49	=49	=49	=49	=49	=49	=49	=49	=49
*	*	*	*	*	*	*	*	*	*	*^	*	*	*	*	*	*	*	*	*	*	*	*	*	*	*	*	*	*	*	*	*	*	*	*
!	!	!	!	!	!	!	!	!	!	!	!	!	!	!	!	!	!	!	!	!	!	!	!	!	!	!LO:SIC:v:n=1:s=16.f#	!	!	!	!	!	!LO:TX:a:t=Col Fl	!	!	!
16.F#X\LL	.	16.F#X\LLyy	.	16.A\LL 16.f#X	.	16.d/LL 16.a	.	16.dd\LL 16.ddd	.	8Ree/L	8Ra\	.	4.ryy	16.FF#X/LL 16.F#X	.	16.d\LL	.	16.a\LL	.	16.dd\LL	.	16.FF#X/LL 16.F#X	.	16.dd\LL	.	16.d\LL 16.f	.	16.dd\LL	.	16.dd\LL 16.aa	.	16.ddd\LLyy	.	16.ddd\LL	.
!	!	!	!	!	!	!	!	!	!	!	!	!	!	!	!	!	!	!	!	!	!	!	!	!	!	!LO:SIC:v:n=1:s=32f#	!	!	!	!	!	!	!	!	!
32F#\JJk	.	32F#\JJkyy	.	32A\JJk 32f#	.	32d/JJk 32a	.	32dd\JJk 32ddd	.	.	.	.	.	32FF#/JJk 32F#	.	32d\JJk	.	32a\JJk	.	32dd\JJk	.	32FF#/JJk 32F#	.	32dd\JJk	.	32d\JJk 32f	.	32dd\JJk	.	32dd\JJk 32aa	.	32ddd\JJkyy	.	32ddd\JJk	.
*	*	*	*	*	*	*	*	*	*	*tremolo	*	*	*	*	*	*	*	*	*	*	*	*	*	*	*	*	*	*	*	*	*	*	*	*	*
!	!	!	!	!	!	!	!	!	!	!	!	!	!	!	!	!	!	!	!	!	!	!	!	!	!	!LO:SIC:v:n=1:s=8f#	!	!	!	!	!	!	!	!	!
8D\L	.	8D\Lyy	.	8A\L 8f#	.	8d/L 8a	.	8dd\L 8ddd	.	32Ree/LL	8r	.	.	8DD/L 8D	.	8d\L	.	8a\L	.	8dd\L	.	8DD/L 8D	.	8dd\L	.	8d\L 8f	.	8dd\L	.	8dd\L 8aa	.	8ddd\Lyy	.	8ddd\L	.
.	.	.	.	.	.	.	.	.	.	32Ree/	.	.	.	.	.	.	.	.	.	.	.	.	.	.	.	.	.	.	.	.	.	.	.	.	.
.	.	.	.	.	.	.	.	.	.	32Ree/	.	.	.	.	.	.	.	.	.	.	.	.	.	.	.	.	.	.	.	.	.	.	.	.	.
.	.	.	.	.	.	.	.	.	.	32Ree/JJ	.	.	.	.	.	.	.	.	.	.	.	.	.	.	.	.	.	.	.	.	.	.	.	.	.
*	*	*	*	*	*	*	*	*	*	*Xtremolo	*	*	*	*	*	*	*	*	*	*	*	*	*	*	*	*	*	*	*	*	*	*	*	*	*
!	!	!	!	!	!	!	!	!	!	!	!	!	!	!	!	!	!	!	!	!	!	!	!	!	!	!LO:SIC:v:n=1:s=8f#	!	!	!	!	!	!	!	!	!
8F#\J	.	8F#\Jyy	.	8A\J 8f#	.	8d/J 8a	.	8dd\J 8ddd	.	8Ree/J	8Ra\	.	.	8FF#/J 8F#	.	8d\J	.	8a\J	.	8cc\J	.	8FF#/J 8F#	.	8dd\J	.	8d\J 8f	.	8cc\J	.	8dd\J 8aa	.	8cccn\Jyy	.	8cccn\J	.
=50	=50	=50	=50	=50	=50	=50	=50	=50	=50	=50	=50	=50	=50	=50	=50	=50	=50	=50	=50	=50	=50	=50	=50	=50	=50	=50	=50	=50	=50	=50	=50	=50	=50	=50	=50
*	*	*	*	*	*	*	*	*	*	*	*	*	*	*	*	*	*	*	*	*	*	*	*	*	*	*^	*	*	*	*	*	*	*	*	*
*	*	*	*	*	*	*	*	*	*	*	*tremolo	*	*	*	*	*	*	*	*	*	*	*	*	*	*	*	*tremolo	*	*	*	*	*	*	*	*	*
8G\L	.	8G\Lyy	.	8G\L 8g	.	8g/L	.	8dd^<\L 8bb	.	4.r	8Ra\L	.	4.ryy	8GG\L 8G	.	8d^<\L	.	8g^<\L	.	8b/L	.	8GG\L 8G	.	8g\L 8dd	.	8g/L	8d\L	.	8b/L	.	8dd\L 8gg	.	8bb'^/Lyy	.	8bb'^<\L	.
!	!	!	!	!LO:SIC:v:n=1:s=8f#	!	!LO:SIC:v:s=8f#/	!	!	!	!	!	!	!	!	!	!	!	!	!	!	!	!	!	!	!	!LO:SIC:v:s=8f#/	!	!	!	!	!	!	!	!	!	!
8A\	.	8A\yy	.	8A\ 8f	.	8f/	.	8dd^<\ 8aa	.	.	8Ra\	.	.	8AA\ 8A	.	8d^<\	.	8f#X^<\	.	8a/	.	8AA\ 8A	.	8dd\	.	8f/	8d\	.	8a/	.	8dd\ 8ff#X	.	8aa'^/yy	.	8aa'^<\	.
8B\J	.	8B\Jyy	.	8B\J 8g	.	8g/J	.	8gg^<\J	.	.	8Ra\J	.	.	8BB\J 8B	.	8d^<\J	.	8g^<\J	.	8g/J	.	8BB\J 8B	.	8g\J 8dd	.	8g/J	8d\J	.	8g/J	.	8dd\J 8gg	.	8gg'^/Jyy	.	8gg'^<\J	.
*	*	*	*	*	*	*	*	*	*	*	*Xtremolo	*	*	*	*	*	*	*	*	*	*	*	*	*	*	*	*Xtremolo	*	*	*	*	*	*	*	*	*
*	*	*	*	*	*	*	*	*	*	*	*	*	*	*	*	*	*	*	*	*	*	*	*	*	*	*v	*v	*	*	*	*	*	*	*	*	*
=51	=51	=51	=51	=51	=51	=51	=51	=51	=51	=51	=51	=51	=51	=51	=51	=51	=51	=51	=51	=51	=51	=51	=51	=51	=51	=51	=51	=51	=51	=51	=51	=51	=51	=51	=51
*	*	*	*	*	*	*	*	*	*	*	*	*	*	*	*	*	*	*	*	*	*	*	*	*^	*	*	*	*	*	*	*	*	*	*	*
*	*	*	*	*tremolo	*	*tremolo	*	*	*	*	*	*	*	*	*	*	*	*	*	*	*	*tremolo	*	*tremolo	*tremolo	*	*tremolo	*	*	*	*	*	*	*	*	*
!	!	!	!	!	!	!	!	!	!	!	!	!	!	!	!	!	!	!	!	!	!	!	!	!	!	!	!LO:SIC:v:n=1:s=8f#	!	!	!	!	!	!	!	!	!
8D\L	.	8D\Lyy	.	8d\L	.	8c/L 8a	.	16.ff#X\LL	.	8Ree/	8Ra\	.	4.ryy	4.D\ 4.A	.	4.c\	.	4.f#X\	.	16.f#X/LL	.	8DD/L 8D	.	8dd/L	8cc\L	.	8d\L 8f	.	8a\L 8cc	.	16.ff#X|\LL	.	16.ff#X'/LLyy	.	16.ff#X'\LL	.
.	.	.	.	.	.	.	.	32dd\K	.	.	.	.	.	.	.	.	.	.	.	32d/JJk	.	.	.	.	.	.	.	.	.	.	32dd|\JJk	.	32dd'/JJkyy	.	32dd'\JJk	.
!	!	!	!	!	!	!	!	!	!	!	!	!	!	!	!	!	!	!	!	!	!	!	!	!	!	!	!LO:SIC:v:n=1:s=8f#	!	!	!	!	!	!	!	!	!
8d\	.	8d\yy	.	8d\	.	8c/ 8a	.	16cc#X\	.	8r	4ryy	.	.	.	.	.	.	.	.	16c#X/LL	.	8DD/ 8D	.	8dd/	8cc\	.	8d\ 8f	.	8a\ 8cc	.	16cc#X'\LL	.	16cc#X'/LLyy	.	16cc#X'\LL	.
.	.	.	.	.	.	.	.	16dd\	.	.	.	.	.	.	.	.	.	.	.	16d/	.	.	.	.	.	.	.	.	.	.	16dd'\	.	16dd'/yy	.	16dd'\	.
!	!	!	!	!	!	!	!	!	!	!	!	!	!	!	!	!	!	!	!	!	!	!	!	!	!	!	!LO:SIC:v:n=1:s=8f#	!	!	!	!	!	!	!	!	!
8D\J	.	8D\Jyy	.	8d\J	.	8c/J 8a	.	16ee\	.	8r	.	.	.	.	.	.	.	.	.	16e/	.	8DD/J 8D	.	8dd/J	8cc\J	.	8d\J 8f	.	8a\J 8cc	.	16ee'\	.	16ee'/yy	.	16ee'\	.
.	.	.	.	.	.	.	.	16ff#\JJ	.	.	.	.	.	.	.	.	.	.	.	16f#/JJ	.	.	.	.	.	.	.	.	.	.	16ff#'\JJ	.	16ff#'/JJyy	.	16ff#'\JJ	.
*	*	*	*	*Xtremolo	*	*Xtremolo	*	*	*	*	*	*	*	*	*	*	*	*	*	*	*	*Xtremolo	*	*Xtremolo	*Xtremolo	*	*Xtremolo	*	*	*	*	*	*	*	*	*
*	*	*	*	*	*	*	*	*	*	*	*	*	*	*	*	*	*	*	*	*	*	*	*	*v	*v	*	*	*	*	*	*	*	*	*	*	*
=52	=52	=52	=52	=52	=52	=52	=52	=52	=52	=52	=52	=52	=52	=52	=52	=52	=52	=52	=52	=52	=52	=52	=52	=52	=52	=52	=52	=52	=52	=52	=52	=52	=52	=52	=52
16G\	.	16G\yy	.	16G\ 16d	.	16B/ 16g	.	16gg\	.	8r	8ryy	.	4.ryy	16G\	.	16B\	.	16g\	.	16g/	.	16GG\ 16G	.	16g\ 16dd	.	16e\ 16g	.	16g\ 16b	.	16gg\	.	16gg/yy	.	16gg\	.
16r	.	16ryy	.	16r	.	16r	.	16r	.	.	.	.	.	16r	.	16r	.	16r	.	16r	.	16r	.	16r	.	16r	.	16r	.	16r	.	16ryy	.	16r	.
!LO:TX:t=P:problem:mixedbeam	!	!LO:TX:t=P:problem:mixedbeam	!	!	!	!	!	!	!	!	!	!	!	!	!	!	!	!	!	!	!	!	!	!	!	!	!	!	!	!	!	!	!	!	!
16.GG|/LL	.	16.GG|/LLyy	.	16.G\LL	.	16.B/LL 16.g	.	8G/ 8g	.	8Ree/	8Ra\	.	.	16.G\LL	.	16.B\LL	.	16.g\LL	.	16.g/LL	.	16.GG\LL 16.G	.	8g\ 8dd	.	8d\ 8g	.	8b\ 8gg	.	8gg\ 8bb	.	8ggg\yy	.	8ggg\	.
32G|\K	.	32G|\Kyy	.	32g\K	.	32g/K	.	.	.	.	.	.	.	32G\K	.	32g\K	.	32g\K	.	32g/K	.	32G\K	.	.	.	.	.	.	.	.	.	.	.	.	.
16.F|\	.	16.F|\yy	.	16.f\	.	16.fn/	.	8r	.	8r	8ryy	.	.	16.F\	.	16.f\	.	16.f\	.	16.f/	.	16.F\	.	8r	.	8r	.	8r	.	8r	.	8ryy	.	8r	.
32D|\JJk	.	32D|\JJkyy	.	32d\JJk	.	32d/JJk	.	.	.	.	.	.	.	32D\JJk	.	32d\JJk	.	32d\JJk	.	32d/JJk	.	32D\JJk	.	.	.	.	.	.	.	.	.	.	.	.	.
*	*	*	*	*	*	*	*	*	*	*v	*v	*	*	*	*	*	*	*	*	*	*	*	*	*	*	*	*	*	*	*	*	*	*	*	*
!!LO:PB:g=original
=53	=53	=53	=53	=53	=53	=53	=53	=53	=53	=53	=53	=53	=53	=53	=53	=53	=53	=53	=53	=53	=53	=53	=53	=53	=53	=53	=53	=53	=53	=53	=53	=53	=53	=53
!	!	!	!	!	!	!	!	!	!	!	!	!	!	!	!	!	!	!	!	!	!	!	!	!	!	!	!	!	!	!	!	!	!LO:TX:a:t=C. D.	!
!	!LO:DY:rj	!	!LO:DY:rj	!	!	!	!	!	!	!	!	!	!	!LO:DY:rj	!	!	!	!LO:DY:rj	!	!LO:DY:rj	!	!	!	!LO:DY:rj	!	!	!	!	!	!	!	!	!	!
16.C|/LL	f	16.C|/LLyy	fy	16.c\LLyy	.	16.c/LLyy	.	4.ryy	.	4.ryy	.	4.ryy	16.C/LLyy	fy	16.c\LLyy	.	16.c/LLyy	fy	16.c/LLyy	fy	16.C|/LLyy	.	16.cc\LLyy	fy	4.ryy	.	4.ryy	.	4.ryy	.	4.ryy	.	4.ryy	.
32BB|/JJk	.	32BB|/JJkyy	.	32B\JJkyy	.	32B/JJkyy	.	.	.	.	.	.	32BB/JJkyy	.	32B\JJkyy	.	32B/JJkyy	.	32B/JJkyy	.	32BB|/JJkyy	.	32b\JJkyy	.	.	.	.	.	.	.	.	.	.	.
8C|/L	.	8C|/Lyy	.	8c\Lyy	.	8c/Lyy	.	.	.	.	.	.	8C/Lyy	.	8c\Lyy	.	8c\Lyy	.	8c/Lyy	.	8C|/Lyy	.	8cc\Lyy	.	.	.	.	.	.	.	.	.	.	.
8E|/J	.	8E|/Jyy	.	8e\Jyy	.	8e/Jyy	.	.	.	.	.	.	8E/Jyy	.	8e\Jyy	.	8e\Jyy	.	8e/Jyy	.	8E|/Jyy	.	8ee\Jyy	.	.	.	.	.	.	.	.	.	.	.
=54	=54	=54	=54	=54	=54	=54	=54	=54	=54	=54	=54	=54	=54	=54	=54	=54	=54	=54	=54	=54	=54	=54	=54	=54	=54	=54	=54	=54	=54	=54	=54	=54	=54	=54
(8qA/	.	(8qA/yy	.	8qa/yy	.	8qa/yy	.	.	.	.	.	.	8qA/yy	.	(8qa/yy	.	(8qa/yy	.	8qa/yy	.	(8qA/yy	.	.	.	.	.	.	.	.	.	.	.	.	.
16.G\LL)	.	16.G\LL)yy	.	16.g\LLyy	.	16.g/LLyy	.	4.ryy	.	4.ryy	.	4.ryy	16.G\LLyy	.	16.g\LL)yy	.	16.g\LL)yy	.	16.g/LLyy	.	16.G\LL)yy	.	16.gg\LLyy	.	4.ryy	.	4.ryy	.	4.ryy	.	4.ryy	.	4.ryy	.
32F#X|\JJk	.	32F#X|\JJkyy	.	32f|\JJkyy	.	32f#X/JJkyy	.	.	.	.	.	.	32F#X\JJkyy	.	32f#X\JJkyy	.	32f#X\JJkyy	.	32f/JJkyy	.	32F#X|\JJkyy	.	32ff#X\JJkyy	.	.	.	.	.	.	.	.	.	.	.
4G|\	.	4G|\yy	.	4g|\yy	.	4g|/yy	.	.	.	.	.	.	4G\yy	.	4g\yy	.	4g\yy	.	4g/yy	.	4G|\yy	.	4gg\yy	.	.	.	.	.	.	.	.	.	.	.
=55	=55	=55	=55	=55	=55	=55	=55	=55	=55	=55	=55	=55	=55	=55	=55	=55	=55	=55	=55	=55	=55	=55	=55	=55	=55	=55	=55	=55	=55	=55	=55	=55	=55	=55
*	*	*	*	*	*	*	*	*	*	*^	*	*	*	*	*	*	*	*	*^	*	*	*	*	*	*	*	*^	*	*^	*	*	*	*	*
*	*	*	*	*tremolo	*	*tremolo	*	*	*	*tremolo	*	*	*	*	*	*	*	*	*	*	*	*	*	*	*	*	*	*	*	*	*	*	*	*	*	*	*	*
!	!	!	!	!	!LO:DY:rj	!	!LO:DY:rj	!	!LO:DY:rj	!	!	!LO:DY:a	!	!	!	!	!	!	!	!	!	!LO:DY:rj	!	!LO:DY:rj	!	!	!	!	!	!LO:SIC:v:s=16f#\yy	!	!LO:SIC:v:s=16.ff#/LLyy	!	!	!LO:TX:a:t=Col Fl.	!	!	!
4.ryy	.	4.ryy	.	8A\Lyy 8dyy	py	8f#X/Lyy	py	16.dd\LL	p	8Ree/Lyy	4.ryy	py	4.ryy	4.ryy	.	4.ryy	.	4.ryy	.	16.dd#X/LLyy	16f#X\yy	py	16D\yy 16F#Xyy	py	4.ryy	.	16Ayy/ 16dyy	.	16.dd/LLyy	16f\yy	.	16.ff/LLyy	4.ryy	.	16.ddd\LLyy	.	16.ddd\LLyy	.
.	.	.	.	.	.	.	.	.	.	.	.	.	.	.	.	.	.	.	.	.	16ryy	.	16ryy	.	.	.	16ryy	.	.	16ryy	.	.	.	.	.	.	.	.
!	!	!	!	!	!	!	!	!	!	!	!	!	!	!	!	!	!	!	!	!	!	!	!	!	!	!	!	!	!	!	!	!LO:SIC:v:s=32ff#/JJkyy	!	!	!	!	!	!
.	.	.	.	.	.	.	.	32ee\JJk	.	.	.	.	.	.	.	.	.	.	.	32ee/JJkyy	.	.	.	.	.	.	.	.	32ee/JJkyy	.	.	32ff/JJkyy	.	.	32eee\JJkyy	.	32eee\JJkyy	.
!	!	!	!	!	!	!	!	!	!	!	!	!	!	!	!	!	!	!	!	!	!	!	!	!	!	!	!	!	!	!LO:SIC:v:s=8f#\Lyy	!	!LO:SIC:v:s=ff#/JJkyy	!	!	!	!	!	!
.	.	.	.	8A\yy 8dyy	.	8f#/yy	.	8dd\L	.	8Ree/yy	.	.	.	.	.	.	.	.	.	8dd#/Lyy	8f#\Lyy	.	8D\Lyy 8F#yy	.	.	.	8Ayy/L 8eyy	.	8dd/Lyy	8f\Lyy	.	8ff/Lyy	.	.	8ddd\Lyy	.	8ddd\Lyy	.
.	.	.	.	8A\Jyy 8dyy	.	8f#/Jyy	.	8cc\J	.	8Ree/Jyy	.	.	.	.	.	.	.	.	.	8cc/Jyy	8f#\Jyy	.	8D\Jyy 8F#yy	.	.	.	8Ayy/J 8dyy	.	8cc/Jyy	8a\Jyy	.	8aa/Jyy	.	.	8ccc\Jyy	.	8ccc\Jyy	.
*	*	*	*	*Xtremolo	*	*Xtremolo	*	*	*	*Xtremolo	*	*	*	*	*	*	*	*	*	*	*	*	*	*	*	*	*	*	*	*	*	*	*	*	*	*	*	*
*	*	*	*	*	*	*	*	*	*	*	*	*	*	*	*	*	*	*	*	*	*	*	*	*	*	*	*	*	*v	*v	*	*	*	*	*	*	*	*
=56	=56	=56	=56	=56	=56	=56	=56	=56	=56	=56	=56	=56	=56	=56	=56	=56	=56	=56	=56	=56	=56	=56	=56	=56	=56	=56	=56	=56	=56	=56	=56	=56	=56	=56	=56	=56	=56
*	*	*	*	*	*	*	*	*	*	*	*	*	*	*	*	*	*	*	*	*	*	*	*^	*	*	*	*	*	*	*	*	*	*	*	*	*	*
4.ryy	.	4.ryy	.	16G\yy 16dyy	.	16.g/LLyy	.	16.b\LL	.	16Ree/yy	4.ryy	.	4.ryy	4.ryy	.	4.ryy	.	4.ryy	.	16.b/LLyy	16.g\LLyy	.	16G\yy	8rBByy	.	4.ryy	.	16Gyy/ 16dyy	.	16.g/LLyy 16.byy	.	16.gg/LLyy	4.ryy	.	16.bb\LLyy	.	16.bb\LLyy	.
.	.	.	.	16ryy	.	.	.	.	.	16ryy	.	.	.	.	.	.	.	.	.	.	.	.	16ryy	.	.	.	.	16ryy	.	.	.	.	.	.	.	.	.	.
.	.	.	.	.	.	32cc/JJkyy	.	32ee\JJk	.	.	.	.	.	.	.	.	.	.	.	32ee/JJkyy	32cc\JJkyy	.	.	.	.	.	.	.	.	32cc/JJkyy 32eeyy	.	32ccc/JJkyy	.	.	32eee\JJkyy	.	32eee\JJkyy	.
.	.	.	.	4G\yy 4dyy	.	4b/yy	.	4dd\	.	4Ree/yy	.	.	.	.	.	.	.	.	.	4dd/yy	4b\yy	.	4B/yy	4G\yy	.	.	.	4Gyy/ 4dyy	.	4b/yy 4ddyy	.	4bb/yy	.	.	4ddd\yy	.	4ddd\yy	.
*	*	*	*	*	*	*	*	*	*	*	*	*	*	*	*	*	*	*	*	*	*	*	*v	*v	*	*	*	*	*	*	*	*	*	*	*	*	*	*
*	*	*	*	*	*	*	*	*	*	*v	*v	*	*	*	*	*	*	*	*	*v	*v	*	*	*	*	*	*	*	*	*	*v	*v	*	*	*	*	*
=57	=57	=57	=57	=57	=57	=57	=57	=57	=57	=57	=57	=57	=57	=57	=57	=57	=57	=57	=57	=57	=57	=57	=57	=57	=57	=57	=57	=57	=57	=57	=57	=57	=57	=57
!	!LO:DY:rj	!	!LO:DY:rj	!	!LO:DY:rj	!	!LO:DY:rj	!	!	!	!	!	!	!LO:DY:rj	!	!LO:DY:rj	!	!LO:DY:rj	!	!LO:DY:rj	!	!	!	!LO:DY:rj	!	!	!	!	!	!	!	!	!	!
16.C|/LL	f	16.C|/LLyy	fy	16.c|\LLyy	fy	16.c/LLyy	fy	4.ryy	.	4.ryy	.	4.ryy	16.C|/LLyy	fy	16.c|\LLyy	fy	16.c\LLyy	fy	16.c|>/LLyy	fy	16.C/LLyy	.	16.cc\LLyy	fyy	4.ryy	.	4.ryy	.	4.ryy	.	4.ryy	.	4.ryy	.
32BB|/JJk	.	32BB|/JJkyy	.	32B|\JJkyy	.	32B/JJkyy	.	.	.	.	.	.	32BB|/JJkyy	.	32B|\JJkyy	.	32B\JJkyy	.	32B|>/JJkyy	.	32BB/JJkyy	.	32b\JJkyy	.	.	.	.	.	.	.	.	.	.	.
8C|/L	.	8C|/Lyy	.	8c|\Lyy	.	8c/Lyy	.	.	.	.	.	.	8C|/Lyy	.	8c|\Lyy	.	8c\Lyy	.	8c|>/Lyy	.	8C\Lyy	.	8cc\Lyy	.	.	.	.	.	.	.	.	.	.	.
8E|/J	.	8E|/Jyy	.	8e|\Jyy	.	8e/Jyy	.	.	.	.	.	.	8E|/Jyy	.	8e|\Jyy	.	8e\Jyy	.	8e|>/Jyy	.	8E\Jyy	.	8ee\Jyy	.	.	.	.	.	.	.	.	.	.	.
=58	=58	=58	=58	=58	=58	=58	=58	=58	=58	=58	=58	=58	=58	=58	=58	=58	=58	=58	=58	=58	=58	=58	=58	=58	=58	=58	=58	=58	=58	=58	=58	=58	=58	=58
16.A|\LL	.	16.A|\LLyy	.	16.a|\LLyy	.	16.a/LLyy	.	4.ryy	.	4.ryy	.	4.ryy	16.A\LLyy	.	16.a\LLyy	.	16.a\LLyy	.	16.a/LLyy	.	16.A\LLyy	.	16.aa\LLyy	.	4.ryy	.	4.ryy	.	4.ryy	.	4.ryy	.	4.ryy	.
32F#X|\JJk	.	32F#X|\JJkyy	.	32f#X|\JJkyy	.	32f#X/JJkyy	.	.	.	.	.	.	32F#X\JJkyy	.	32f#X\JJkyy	.	32f#X\JJkyy	.	32f#X/JJkyy	.	32F#X\JJkyy	.	32ff#X\JJkyy	.	.	.	.	.	.	.	.	.	.	.
4G|\	.	4G|\yy	.	4g\yy	.	4g/yy	.	.	.	.	.	.	4G\yy	.	4g\yy	.	4g\yy	.	4g/yy	.	4G\yy	.	4gg\yy	.	.	.	.	.	.	.	.	.	.	.
!!LO:PB:g=original
=59	=59	=59	=59	=59	=59	=59	=59	=59	=59	=59	=59	=59	=59	=59	=59	=59	=59	=59	=59	=59	=59	=59	=59	=59	=59	=59	=59	=59	=59	=59	=59	=59	=59	=59
*	*	*	*	*	*	*	*	*	*	*	*	*	*	*	*	*	*	*	*	*	*	*	*^	*	*	*	*^	*	*	*	*	*	*	*
*	*	*	*	*tremolo	*	*	*	*Xtuplet	*	*	*	*	*	*	*	*	*	*	*	*	*	*	*tremolo	*tremolo	*	*	*	*Xtuplet	*	*	*	*	*Xtuplet	*	*Xtuplet	*
!	!	!	!	!	!	!	!	!	!	!	!	!	!	!	!	!	!	!	!	!	!	!	!	!	!	!	!	!	!	!	!	!	!LO:TX:a:t=Col Fl.	!	!	!
8C/L	.	8C/Lyy	.	8A\L 8e	.	8c/L 8e	.	24e~/LL	.	4.r	.	4.r	4.r	.	4.r	.	4.r	.	4.r	.	8C\L 8c	.	8ee/L	8cc\L	.	4.r	.	24e'</LL	8r	.	8cc\L 8ee	.	24ee'/LLyy	.	24ee'\LL	.
.	.	.	.	.	.	.	.	(<24g#X/	.	.	.	.	.	.	.	.	.	.	.	.	.	.	.	.	.	.	.	(<24g#X/	.	.	.	.	(24gg#X/yy	.	(24gg#X\	.
.	.	.	.	.	.	.	.	24a/JJ	.	.	.	.	.	.	.	.	.	.	.	.	.	.	.	.	.	.	.	24a/JJ	.	.	.	.	24aa/JJyy	.	24aa\JJ	.
8AA/	.	8AA/yy	.	8A\ 8e	.	8c/ 8e	.	8cc\L)	.	.	.	.	.	.	.	.	.	.	.	.	8AA\ 8A	.	8ee/	8cc\	.	.	.	8cc/L)	8r	.	8ee\ 8aa	.	8ccc\L)yy	.	8ccc\L)	.
8C/J	.	8C/Jyy	.	8A\J 8e	.	8c/J 8a	.	8ee'\J	.	.	.	.	.	.	.	.	.	.	.	.	8C\J 8A	.	8ee/J	8cc\J	.	.	.	8ee/J	8a\	.	8cc\J 8ee	.	8eee\Jyy	.	8eee\J	.
*	*	*	*	*Xtremolo	*	*	*	*	*	*	*	*	*	*	*	*	*	*	*	*	*	*	*Xtremolo	*Xtremolo	*	*	*	*	*	*	*	*	*	*	*	*
=60	=60	=60	=60	=60	=60	=60	=60	=60	=60	=60	=60	=60	=60	=60	=60	=60	=60	=60	=60	=60	=60	=60	=60	=60	=60	=60	=60	=60	=60	=60	=60	=60	=60	=60	=60	=60
*	*	*	*	*	*	*	*	*	*	*	*	*	*^	*	*	*	*	*	*	*	*	*	*	*	*	*	*	*	*	*	*	*	*	*	*	*
*	*	*	*	*	*	*	*	*	*	*tremolo	*	*	*	*	*	*	*	*	*	*	*	*	*	*	*	*	*	*	*	*	*	*	*	*	*	*	*
!	!	!	!	!	!	!	!	!	!	!	!	!	!	!	!	!	!	!	!	!	!	!	!	!	!	!	!	!	!	!LO:SIC:v:s=8f#\	!	!LO:SIC:v:n=1:s=8ff#	!	!	!	!	!
8D\	.	8D\yy	.	8A\ 8d	.	8c/ 8f	.	(>32ee\LLL	.	32Ree/LLL	.	4.ryy	8D/	8D\	.	8F#X/	.	8c\	.	4.r	.	8D\ 8A	.	8dd/	8cc\	.	4.r	.	32ee/LLL	8f\	.	8dd\ 8ff	.	(32eee\LLLyy	.	(32eee\LLL	.
.	.	.	.	.	.	.	.	32dd\	.	32Ree/	.	.	.	.	.	.	.	.	.	.	.	.	.	.	.	.	.	.	32dd/	.	.	.	.	32ddd\yy	.	32ddd\	.
.	.	.	.	.	.	.	.	32cc\	.	32Ree/	.	.	.	.	.	.	.	.	.	.	.	.	.	.	.	.	.	.	32cc/	.	.	.	.	32ccc\yy	.	32ccc\	.
.	.	.	.	.	.	.	.	32a\JJJ	.	32Ree/JJ	.	.	.	.	.	.	.	.	.	.	.	.	.	.	.	.	.	.	32a/JJJ	.	.	.	.	32aa\JJJyy	.	32aa\JJJ	.
*	*	*	*	*	*	*	*	*	*	*Xtremolo	*	*	*	*	*	*	*	*	*	*	*	*	*	*	*	*	*	*	*	*	*	*	*	*	*	*	*
8G\	.	8G\yy	.	8G\ 8d	.	8B/ 8g	.	8g/)	.	8Ree/J	.	.	8GG/ 8G	4ryy	.	8G/	.	8B\	.	.	.	8G\ 8B	.	8g/ 8dd	4ryy	.	.	.	8g/	8g\	.	8b\ 8gg	.	8gg\)yy	.	8gg\)	.
8r	.	8ryy	.	8r	.	8r	.	8r	.	8r	.	.	8r	.	.	8r	.	8r	.	.	.	8r	.	8r	.	.	.	.	8r	8ryy	.	8r	.	8ryy	.	8r	.
*	*	*	*	*	*	*	*	*	*	*	*	*	*v	*v	*	*	*	*	*	*	*	*	*	*v	*v	*	*	*	*v	*v	*	*	*	*	*	*	*
!!LO:PB:g=original
=:|!	=:|!	=:|!	=:|!	=:|!	=:|!	=:|!	=:|!	=:|!	=:|!	=:|!	=:|!	=:|!	=:|!	=:|!	=:|!	=:|!	=:|!	=:|!	=:|!	=:|!	=:|!	=:|!	=:|!	=:|!	=:|!	=:|!	=:|!	=:|!	=:|!	=:|!	=:|!	=:|!	=:|!	=:|!
*-	*-	*-	*-	*-	*-	*-	*-	*-	*-	*-	*-	*-	*-	*-	*-	*-	*-	*-	*-	*-	*-	*-	*-	*-	*-	*-	*-	*-	*-	*-	*-	*-	*-	*-
!!!system-decoration: {(s1,s2)}(s3,s4){(s5,s6)}(s7,s8){(g1)}(s12,s13){(g2,s16)}{(s17,s18)}
!!!RDF**kern: < = below
!!!RDF**kern: > = above
!!!RDF**kern: | = vertical stroke
!!!ENC: Marta Chmielewska
!!!END: 2021-06-29
!!!ENC:Anastazja Marusiak
!!!END:2021-06-08
